/* XPM */
static char * 2_xpm[] = {
"48 48 9 1",
" 	c #315F59",
".	c #367F63",
"+	c #141414",
"@	c #004766",
"#	c #2E1C2C",
"$	c #0287C4",
"%	c #89AB83",
"&	c #254D48",
"*	c #2B3335",
"         ..+++++++++++++++++++++++++++ ...   ...",
"         ..+++++++++++++++++++++++++++ ...   ...",
"         ..+++++++++++++++++++++++++++ ...   ...",
"   ........+++++++++++++++++++++++++++       ...",
"   .....+++@@@@@@@@@@@@@@@@@@@@@@@@@@@+++    ...",
"   .....+++@@@@@@@@@@@@@@@@@@@@@@@@@@@+++    ...",
"......  +++@@@@@@@@@@@@@@@@@@@@@@@@@@@+++    ...",
"......  +++@@@@@@@@@@@@@@@@@@@@@@@@@@@+++    ...",
"....++++@@@@@@@@@@@@@@@@@@@@@@@@@@@@@@@@@++++...",
"... ++++@@@@@@@@@@@@@@@@@@@@@@@@@@@@@@@@@++++...",
"... ++++@@@@@@@@@@@@@@@@@@@@@@@@@@@@@@@@@++++...",
"...#++++@@@$$$$$$$$$$$$$$$$$$$$$$$$$$$@@@++++...",
"...#++++@@@$$$$$$$$$$$$$$$$$$$$$$$$$$$@@@++++...",
"...#++++@@@$$$$$$$$$$$$$$$$$$$$$$$$$$$@@@++++...",
"###%++++@@@$$$$$$$$$$$$$$$$$$$$$$$$$$$@@@++++###",
"###%++++$$$$$$$$$$$$$$$$$$$$$$$$$$$$$$$$$++++###",
"###%++++$$$$$$$$$$$$$$$$$$$$$$$$$$$$$$$$$++++###",
"###.++++$$$$$$$$$$$$$$$$$$$$$$$$$$$$$$$$$++++###",
"###.++++$$$$$$$$$$$$$$$$$$$$$$$$$$$$$$$$$++++###",
"###.++++$$$$$$$++++@@@@@@@@@@@$$$$$$$$$$$++++###",
"###&++++$$$$$$$++++@@@@@@@@@@@$$$$$$$$$$$++++###",
"###&++++$$$$$$$++++@@@@@@@@@@@$$$$$$$$$$$++++###",
"###&++++$$$$$$$++++@@@@@@@@@@@$$$$$$$$$$$++++###",
"###&&&&&+++++++@@@@@@@@$$$$$$$$$$$$$$$+++++++###",
"###&&&&&+++++++@@@@@@@@$$$$$$$$$$$$$$$+++++++###",
"###&&&&&+++++++@@@@@@@@$$$$$$$$$$$$$$$+++++++###",
"   ###**+++@@@@@@@@$$$$$$$$$$$$$$$+++++++*###...",
"...###**+++@@@@@@@@$$$$$$$$$$$$$$$+++++++*###...",
"...###**+++@@@@@@@@$$$$$$$$$$$$$$$+++++++*###...",
"###&&&**+++@@@@@@@@$$$$$$$$$$$$$$$+++++++*&&&###",
"###&++++@@@@@@@$$$$$$$$$$$$$$$@@@@@@@@@@@++++###",
"###&++++@@@@@@@$$$$$$$$$$$$$$$@@@@@@@@@@@++++###",
"###&++++@@@@@@@$$$$$$$$$$$$$$$@@@@@@@@@@@++++###",
"###&++++@@@@@@@$$$$$$$$$$$$$$$@@@@@@@@@@@++++###",
"###&++++@@@$$$$$$$$$$$$@@@@@@@@@@@@@@@@@@++++###",
"   *++++@@@$$$$$$$$$$$$@@@@@@@@@@@@@@@@@@++++...",
"...*++++@@@$$$$$$$$$$$$@@@@@@@@@@@@@@@@@@++++   ",
"...*++++$$$$$$$$$$$$$$$$$$$$$$$$$$$$$$$$$++++   ",
"....++++$$$$$$$$$$$$$$$$$$$$$$$$$$$$$$$$$++++   ",
"....++++$$$$$$$$$$$$$$$$$$$$$$$$$$$$$$$$$++++   ",
"....++++$$$$$$$$$$$$$$$$$$$$$$$$$$$$$$$$$++++   ",
"....++++$$$$$$$$$$$$$$$$$$$$$$$$$$$$$$$$$++++   ",
"... ++++$$$$$$$$$$$$$$$$$$$$$$$$$$$$$$$$$++++...",
"... ++++$$$$$$$$$$$$$$$$$$$$$$$$$$$$$$$$$++++...",
"... ++++$$$$$$$$$$$$$$$$$$$$$$$$$$$$$$$$$++++...",
"        +++++++++++++++++++++++++++++++++.......",
"        +++++++++++++++++++++++++++++++++.......",
"        +++++++++++++++++++++++++++++++++......."};
