/* XPM */
static char * gauche2_xpm[] = {
"48 48 21 1",
" 	c #315F59",
".	c #367F63",
"+	c #89AB83",
"@	c #63778F",
"#	c #453F60",
"$	c #2C253E",
"%	c #ADC3CC",
"&	c #5A2818",
"*	c #9B3C1B",
"=	c #DC6831",
"-	c #885038",
";	c #D08860",
">	c #181818",
",	c #F8F0E0",
"'	c #F8D098",
")	c #702818",
"!	c #C84830",
"~	c #F09850",
"{	c #204858",
"]	c #389088",
"^	c #78D8E8",
"         ...            .........      ...   ...",
"         ...            .........      ...   ...",
"         ...            .........      ...   ...",
"   ...............         .........      +++...",
"   ...............         .........      +++...",
"   ...............      @###$.......      +++...",
"......               .#@%%@#$.         +++      ",
"......               #@%%%@$..         +++      ",
"......              $@%%%@#$..         +++      ",
"...   +++       $$&&#@@%%%@$     +++      ...   ",
"...   +++      $##$***#@@@@#$    +++      ...   ",
"...   +++      $#@@#==**&*&&&    +++      ...   ",
"......++++++   $#@%%@===*&*&$$$$.++++++   ...   ",
"......++++++    $#@%%%%%%%%%@@#$.++++++   ...   ",
"......++++++     $#@%%%%%%@@@##$.++++++   ...   ",
".........+++...  -$$##@@@@@###$.....+++.........",
".........+++...  -;--$$###$$>>......+++.........",
".........+++...  -;>,;'';>->........+++.........",
"......   ++++++..>;>,;';))>>           .........",
"......   ++++++..>-;;;))!!)>>>         .........",
"......   ++++++...>-->!~~!){{{>        .........",
"            ... ;;>>>]))))]{{{->       ...   ...",
"            ... ;;^^^^]{]^^>>-->       ...   ...",
"            ... --]^^]{>{]^>.>>>       ...   ...",
"      ......    >>{]]{>{)!!>..         .........",
"      ......      >>>>{]]]]{>.         .........",
"      ......   >>   {]^^^^]]{>{{       .........",
".........      >{> >>{]]]]{{)]]]{......+++   ...",
".........      >{{>))>{{{{)!!)^^]{.....+++   ...",
".........      >{{{)))>>)!!!~~)]]]{....+++   ...",
"................>{{))>>.>))!~~!>>]{.++++++      ",
"................>{{>>...+>)))>>..>>.++++++      ",
".................>>.....++>>>.......++++++      ",
"   ...      +++............+++   ...+++......   ",
"   ...      +++............+++   ...+++......   ",
"   ...      +++............+++   ...+++......   ",
".........++++++......      ++++++   +++...      ",
".........++++++......      ++++++   +++...      ",
".........++++++..>>>>>>>>>>>>>+++   +++...      ",
"......   +++......   +>>>>>>>>>>>...+++         ",
"......   +++......   +++      +++...+++         ",
"......   +++......   +++      +++...+++         ",
"...         ......   ++++++   +++...+++      ...",
"...         ......   ++++++   +++...+++      ...",
"...         ......   ++++++   +++...+++      ...",
"         ......               ..................",
"         ......               ..................",
"         ......               .................."};
