/* XPM */
static char * grotte_xpm[] = {
"48 48 730 2",
"  	c None",
". 	c #315F59",
"+ 	c #315C57",
"@ 	c #426855",
"# 	c #6D6A74",
"$ 	c #5B596A",
"% 	c #424248",
"& 	c #5F324C",
"* 	c #814C80",
"= 	c #79427E",
"- 	c #813755",
"; 	c #772D3F",
"> 	c #7B2D3E",
", 	c #301C2E",
"' 	c #732C40",
") 	c #2D1C2A",
"! 	c #93352D",
"~ 	c #632E4D",
"{ 	c #502E54",
"] 	c #2E1C2D",
"^ 	c #772C3D",
"/ 	c #AC3D32",
"( 	c #CB5E35",
"_ 	c #733944",
": 	c #315E58",
"< 	c #2F4143",
"[ 	c #315649",
"} 	c #367F63",
"| 	c #315D58",
"1 	c #315753",
"2 	c #2F5450",
"3 	c #325C57",
"4 	c #335F5A",
"5 	c #2F5A55",
"6 	c #2E4848",
"7 	c #493235",
"8 	c #546351",
"9 	c #587D62",
"0 	c #475F50",
"a 	c #54303E",
"b 	c #743B6C",
"c 	c #AD7A64",
"d 	c #B67E78",
"e 	c #8A5989",
"f 	c #944961",
"g 	c #EE894A",
"h 	c #F48D4A",
"i 	c #6C2838",
"j 	c #6B3254",
"k 	c #653256",
"l 	c #66293A",
"m 	c #692C46",
"n 	c #6D3D68",
"o 	c #885087",
"p 	c #58305E",
"q 	c #6B293A",
"r 	c #F28C4A",
"s 	c #EF8A49",
"t 	c #AA623C",
"u 	c #346351",
"v 	c #6D8568",
"w 	c #7F4A88",
"x 	c #60315F",
"y 	c #354348",
"z 	c #315D57",
"A 	c #305E58",
"B 	c #335351",
"C 	c #43384C",
"D 	c #5B3E67",
"E 	c #6C537D",
"F 	c #58586E",
"G 	c #43594F",
"H 	c #616A57",
"I 	c #52795F",
"J 	c #3B6459",
"K 	c #3E6058",
"L 	c #4B3F3F",
"M 	c #605952",
"N 	c #7F7083",
"O 	c #97628C",
"P 	c #B07B75",
"Q 	c #776B71",
"R 	c #876A5D",
"S 	c #BF7344",
"T 	c #CF7640",
"U 	c #EE8948",
"V 	c #E88647",
"W 	c #B06545",
"X 	c #7B4770",
"Y 	c #794771",
"Z 	c #5A4C59",
"` 	c #79557D",
" .	c #A26C72",
"..	c #BE866E",
"+.	c #96598B",
"@.	c #CE7962",
"#.	c #EB8848",
"$.	c #A9613C",
"%.	c #2E4340",
"&.	c #6D9976",
"*.	c #89AB83",
"=.	c #8C4E93",
"-.	c #CF9852",
";.	c #351F35",
">.	c #315B56",
",.	c #2E5953",
"'.	c #4D4A5D",
").	c #804C84",
"!.	c #A46A85",
"~.	c #A77578",
"{.	c #61646F",
"].	c #49715E",
"^.	c #577E65",
"/.	c #61736F",
"(.	c #734977",
"_.	c #724974",
":.	c #6F4C4E",
"<.	c #536D57",
"[.	c #7C9F7A",
"}.	c #8A9B88",
"|.	c #8D8492",
"1.	c #7A8382",
"2.	c #4C7760",
"3.	c #798063",
"4.	c #4F5948",
"5.	c #864D37",
"6.	c #AC7049",
"7.	c #835361",
"8.	c #91606C",
"9.	c #876655",
"0.	c #59765E",
"a.	c #80937F",
"b.	c #916690",
"c.	c #B17D75",
"d.	c #846976",
"e.	c #A16A6C",
"f.	c #E6864A",
"g.	c #ED8848",
"h.	c #AF663C",
"i.	c #2E3E3D",
"j.	c #648268",
"k.	c #88A982",
"l.	c #8E5096",
"m.	c #C99257",
"n.	c #37484C",
"o.	c #305C56",
"p.	c #39424A",
"q.	c #714565",
"r.	c #BA8468",
"s.	c #AD767C",
"t.	c #8D808F",
"u.	c #6B8471",
"v.	c #45655C",
"w.	c #73537F",
"x.	c #8C5B8D",
"y.	c #AA678F",
"z.	c #814D74",
"A.	c #585E55",
"B.	c #658B6D",
"C.	c #6C9070",
"D.	c #638C6F",
"E.	c #537A65",
"F.	c #456D5D",
"G.	c #5A7A6A",
"H.	c #577B68",
"I.	c #37604F",
"J.	c #55705C",
"K.	c #676C6D",
"L.	c #805084",
"M.	c #755561",
"N.	c #597E64",
"O.	c #7CA27C",
"P.	c #879B87",
"Q.	c #8E8393",
"R.	c #627473",
"S.	c #786E55",
"T.	c #BB7043",
"U.	c #E08045",
"V.	c #F28C49",
"W.	c #CF7741",
"X.	c #955649",
"Y.	c #37424B",
"Z.	c #60886A",
"`.	c #928897",
" +	c #5E646E",
".+	c #765687",
"++	c #355F5B",
"@+	c #304A49",
"#+	c #6B4874",
"$+	c #88678B",
"%+	c #8B858E",
"&+	c #809784",
"*+	c #517C65",
"=+	c #59526A",
"-+	c #93657F",
";+	c #C78E64",
">+	c #F2A24D",
",+	c #B5757F",
"'+	c #5D3F56",
")+	c #474C44",
"!+	c #735D48",
"~+	c #4F4C56",
"{+	c #5B516C",
"]+	c #6F4F74",
"^+	c #795587",
"/+	c #754977",
"(+	c #465959",
"_+	c #426857",
":+	c #6F6C53",
"<+	c #424950",
"[+	c #493C55",
"}+	c #3B5149",
"|+	c #597660",
"1+	c #5B8366",
"2+	c #618670",
"3+	c #5A7E66",
"4+	c #557E64",
"5+	c #717B5F",
"6+	c #6E4335",
"7+	c #D87D44",
"8+	c #C9733F",
"9+	c #7A454D",
"0+	c #774477",
"a+	c #693E69",
"b+	c #41444E",
"c+	c #5E7861",
"d+	c #2D6856",
"e+	c #2B5751",
"f+	c #306F5A",
"g+	c #2E6351",
"h+	c #476054",
"i+	c #749072",
"j+	c #7EA47D",
"k+	c #64876A",
"l+	c #525652",
"m+	c #855271",
"n+	c #905C86",
"o+	c #AE7765",
"p+	c #E79F58",
"q+	c #B27A82",
"r+	c #674361",
"s+	c #8E5A45",
"t+	c #C37147",
"u+	c #663762",
"v+	c #8D5290",
"w+	c #BE8586",
"x+	c #C27F8E",
"y+	c #95579A",
"z+	c #6D466A",
"A+	c #844A41",
"B+	c #964339",
"C+	c #2C2A33",
"D+	c #2A2E33",
"E+	c #764339",
"F+	c #7B493B",
"G+	c #614953",
"H+	c #515763",
"I+	c #515761",
"J+	c #546869",
"K+	c #60806E",
"L+	c #355B4C",
"M+	c #666751",
"N+	c #79595D",
"O+	c #75466F",
"P+	c #AA756E",
"Q+	c #986087",
"R+	c #684568",
"S+	c #424E4F",
"T+	c #617C64",
"U+	c #2F4646",
"V+	c #35785E",
"W+	c #355C4C",
"X+	c #496853",
"Y+	c #435449",
"Z+	c #3E403D",
"`+	c #764636",
" @	c #804944",
".@	c #5D3654",
"+@	c #9B5989",
"@@	c #A5649A",
"#@	c #8A598C",
"$@	c #555B66",
"%@	c #9C6D4E",
"&@	c #CA7545",
"*@	c #61315F",
"=@	c #A45E89",
"-@	c #E3966A",
";@	c #F8A938",
">@	c #C67683",
",@	c #764C76",
"'@	c #864444",
")@	c #2D202D",
"!@	c #2E1C2C",
"~@	c #C25A34",
"{@	c #AB503E",
"]@	c #984D6E",
"^@	c #8D538E",
"/@	c #9E6887",
"(@	c #895493",
"_@	c #754978",
":@	c #42605B",
"<@	c #4E775F",
"[@	c #65796C",
"}@	c #805386",
"|@	c #B57D76",
"1@	c #AF7F74",
"2@	c #8B7A8C",
"3@	c #626667",
"4@	c #62886A",
"5@	c #35745C",
"6@	c #844F37",
"7@	c #62374E",
"8@	c #714673",
"9@	c #716B78",
"0@	c #727263",
"a@	c #BF794D",
"b@	c #4A2030",
"c@	c #975555",
"d@	c #915289",
"e@	c #CC8486",
"f@	c #DF9C6E",
"g@	c #B7758C",
"h@	c #7C4382",
"i@	c #96404C",
"j@	c #2E1E2D",
"k@	c #9C4940",
"l@	c #814579",
"m@	c #BF7488",
"n@	c #E49F69",
"o@	c #CA8489",
"p@	c #874D90",
"q@	c #4F4F5D",
"r@	c #3F6E5C",
"s@	c #49595A",
"t@	c #494B5E",
"u@	c #855587",
"v@	c #7D6579",
"w@	c #7A7789",
"x@	c #786E77",
"y@	c #326A57",
"z@	c #34775E",
"A@	c #305548",
"B@	c #576058",
"C@	c #667B68",
"D@	c #9C7957",
"E@	c #DF844A",
"F@	c #471C2C",
"G@	c #865350",
"H@	c #764477",
"I@	c #915794",
"J@	c #96608B",
"K@	c #825081",
"L@	c #633566",
"M@	c #E88551",
"N@	c #E38346",
"O@	c #AC624A",
"P@	c #85497C",
"Q@	c #C57A86",
"R@	c #F9AA38",
"S@	c #E08F6F",
"T@	c #975985",
"U@	c #5E4A59",
"V@	c #5D7966",
"W@	c #5F5E6F",
"X@	c #755578",
"Y@	c #93716E",
"Z@	c #946674",
"`@	c #755C82",
" #	c #5B4B64",
".#	c #2D6A57",
"+#	c #687E63",
"@#	c #AE6840",
"##	c #325E4D",
"$#	c #35795F",
"%#	c #34765D",
"&#	c #2F5549",
"*#	c #2F3F3E",
"=#	c #65856A",
"-#	c #A15C41",
";#	c #A46845",
">#	c #8B6346",
",#	c #8D443A",
"'#	c #A63D34",
")#	c #D27B45",
"!#	c #71614F",
"~#	c #6B7A72",
"{#	c #6B6B75",
"]#	c #556069",
"^#	c #6B4C54",
"/#	c #6E3746",
"(#	c #F18B49",
"_#	c #CA7544",
":#	c #755550",
"<#	c #764376",
"[#	c #9F5F9A",
"}#	c #C18387",
"|#	c #B9798B",
"1#	c #904E8B",
"2#	c #7E4456",
"3#	c #514B47",
"4#	c #386559",
"5#	c #614669",
"6#	c #834F8B",
"7#	c #6F4E7B",
"8#	c #4A4959",
"9#	c #966849",
"0#	c #67876B",
"a#	c #784A81",
"b#	c #5F3260",
"c#	c #74437D",
"d#	c #485A5C",
"e#	c #306A57",
"f#	c #357D62",
"g#	c #31705A",
"h#	c #2F4746",
"i#	c #254D48",
"j#	c #699774",
"k#	c #958B9A",
"l#	c #EF8A4C",
"m#	c #A43B32",
"n#	c #9D3831",
"o#	c #A53B31",
"p#	c #DC8046",
"q#	c #906446",
"r#	c #6E6E59",
"s#	c #897B5F",
"t#	c #835F4A",
"u#	c #89463F",
"v#	c #77303F",
"w#	c #BD7244",
"x#	c #626958",
"y#	c #707676",
"z#	c #735F7C",
"A#	c #76567B",
"B#	c #7F4A7A",
"C#	c #943F69",
"D#	c #79304C",
"E#	c #75323F",
"F#	c #2A3B3C",
"G#	c #B8724C",
"H#	c #C36E64",
"I#	c #B5734A",
"J#	c #8C4F93",
"K#	c #C68F5E",
"L#	c #995E8E",
"M#	c #4F2D52",
"N#	c #346F58",
"O#	c #357B60",
"P#	c #375A4F",
"Q#	c #5E626D",
"R#	c #594563",
"S#	c #97563F",
"T#	c #AC3D34",
"U#	c #AD3D32",
"V#	c #D27A44",
"W#	c #C77948",
"X#	c #B65D3C",
"Y#	c #A24036",
"Z#	c #A93E33",
"`#	c #C97745",
" $	c #77624C",
".$	c #6A7561",
"+$	c #60695F",
"@$	c #495A56",
"#$	c #7F4648",
"$$	c #A13E3F",
"%$	c #3B5950",
"&$	c #623363",
"*$	c #8E4F95",
"=$	c #823030",
"-$	c #C85D35",
";$	c #C75C34",
">$	c #CA5E35",
",$	c #A33830",
"'$	c #943F36",
")$	c #934A3E",
"!$	c #673F44",
"~$	c #693C42",
"{$	c #9F4036",
"]$	c #3D5651",
"^$	c #673567",
"/$	c #975593",
"($	c #D6807E",
"_$	c #D69B7E",
":$	c #F08B49",
"<$	c #4E1C2C",
"[$	c #AB3C32",
"}$	c #7A2E3E",
"|$	c #35775D",
"1$	c #6C8A75",
"2$	c #7F4381",
"3$	c #AC69A5",
"4$	c #FEAE02",
"5$	c #A05EAD",
"6$	c #783C77",
"7$	c #65806B",
"8$	c #666275",
"9$	c #975A93",
"0$	c #D0977C",
"a$	c #C17675",
"b$	c #844F8C",
"c$	c #594562",
"d$	c #813532",
"e$	c #5E2536",
"f$	c #762C3C",
"g$	c #2E6A57",
"h$	c #2E6A58",
"i$	c #884F8F",
"j$	c #50475E",
"k$	c #704741",
"l$	c #2E6955",
"m$	c #50294A",
"n$	c #4A1C2C",
"o$	c #347B61",
"p$	c #356959",
"q$	c #925941",
"r$	c #7E453D",
"s$	c #264C47",
"t$	c #D57B43",
"u$	c #732B3B",
"v$	c #367C61",
"w$	c #C15934",
"x$	c #963632",
"y$	c #B56E43",
"z$	c #2C3E3D",
"A$	c #7A4380",
"B$	c #C08A5B",
"C$	c #4F2E52",
"D$	c #692839",
"E$	c #367E62",
"F$	c #34725B",
"G$	c #A05F3D",
"H$	c #715B47",
"I$	c #56745A",
"J$	c #6C775F",
"K$	c #67496D",
"L$	c #4F4757",
"M$	c #79707F",
"N$	c #4C4751",
"O$	c #C57544",
"P$	c #355F4E",
"Q$	c #315E59",
"R$	c #CE7946",
"S$	c #7E523D",
"T$	c #52715C",
"U$	c #78A07A",
"V$	c #848C84",
"W$	c #865181",
"X$	c #704264",
"Y$	c #85606A",
"Z$	c #A86D49",
"`$	c #E08347",
" %	c #305954",
".%	c #3F5A55",
"+%	c #6C3842",
"@%	c #DD7F47",
"#%	c #A56441",
"$%	c #59705B",
"%%	c #80A27E",
"&%	c #8D7291",
"*%	c #BB826F",
"=%	c #A46E7B",
"-%	c #824A71",
";%	c #CB7542",
">%	c #2B3D3E",
",%	c #32524D",
"'%	c #344E4C",
")%	c #78363E",
"!%	c #A65D4F",
"~%	c #B16461",
"{%	c #9C5D5E",
"]%	c #44645A",
"^%	c #77937F",
"/%	c #947790",
"(%	c #B58568",
"_%	c #965A8D",
":%	c #7A4550",
"<%	c #D57B44",
"[%	c #4D6555",
"}%	c #596363",
"|%	c #713C6C",
"1%	c #864A7E",
"2%	c #99578C",
"3%	c #854E88",
"4%	c #4B5B61",
"5%	c #64826E",
"6%	c #667776",
"7%	c #6F5F78",
"8%	c #AC677A",
"9%	c #491E30",
"0%	c #4D1C2C",
"a%	c #2E6956",
"b%	c #755786",
"c%	c #626271",
"d%	c #607B67",
"e%	c #73697A",
"f%	c #945393",
"g%	c #C77C86",
"h%	c #D78C7A",
"i%	c #AF7688",
"j%	c #63506C",
"k%	c #45735D",
"l%	c #57755D",
"m%	c #8F594F",
"n%	c #BF5C46",
"o%	c #367D62",
"p%	c #496A5F",
"q%	c #676373",
"r%	c #9E6393",
"s%	c #E8A060",
"t%	c #FAAB34",
"u%	c #BB7A90",
"v%	c #735782",
"w%	c #5E806B",
"x%	c #75755C",
"y%	c #A94F34",
"z%	c #306C59",
"A%	c #4D5C60",
"B%	c #8C5B82",
"C%	c #C78685",
"D%	c #D1817C",
"E%	c #9A5A9C",
"F%	c #527865",
"G%	c #454A41",
"H%	c #B35131",
"I%	c #2D202E",
"J%	c #32745D",
"K%	c #3B695C",
"L%	c #6C5A7A",
"M%	c #94538E",
"N%	c #764972",
"O%	c #4F565E",
"P%	c #3A6553",
"Q%	c #85543B",
"R%	c #2E3036",
"S%	c #387C62",
"T%	c #4C7368",
"U%	c #58686C",
"V%	c #7C5654",
"W%	c #9D5743",
"X%	c #516655",
"Y%	c #5E7E63",
"Z%	c #A07152",
"`%	c #D37A41",
" &	c #EA8747",
".&	c #2F3B3E",
"+&	c #387D63",
"@&	c #337B60",
"#&	c #DD854C",
"$&	c #8C6D4E",
"%&	c #62716A",
"&&	c #7F5277",
"*&	c #915154",
"=&	c #B56848",
"-&	c #E78547",
";&	c #E58A4D",
">&	c #6C4C7B",
",&	c #A26C7B",
"'&	c #8E5D70",
")&	c #8F5270",
"!&	c #D2794D",
"~&	c #DC864D",
"{&	c #8F6355",
"]&	c #8A578A",
"^&	c #BF876A",
"/&	c #A46B85",
"(&	c #724368",
"_&	c #C37049",
":&	c #B9725E",
"<&	c #7C5F7A",
"[&	c #92777A",
"}&	c #8B5F84",
"|&	c #764353",
"1&	c #D37A45",
"2&	c #82835E",
"3&	c #B05A3A",
"4&	c #AE7E59",
"5&	c #A38B7A",
"6&	c #7C686E",
"7&	c #A86449",
"8&	c #A23930",
"9&	c #F68946",
"0&	c #82825E",
"a&	c #645D51",
"b&	c #C4633C",
"c&	c #B8744E",
"d&	c #A15D43",
"e&	c #B55635",
"f&	c #F37D40",
"g&	c #797C5D",
"h&	c #FE8F47",
"i&	c #783841",
"j&	c #C65D36",
"k&	c #F08A49",
"l&	c #2D2D35",
"m&	c #E66E3D",
"n&	c #B88255",
"o&	c #6E4D49",
"p&	c #ED733C",
"q&	c #D36740",
"r&	c #6C504A",
"s&	c #E86938",
"t&	c #AF644A",
"u&	c #AD7652",
"v&	c #ED733D",
"w&	c #E86838",
"x&	c #717C5D",
"y&	c #E66939",
"z&	c #ED723C",
"A&	c #EA6D3A",
"B&	c #2E393D",
"C&	c #A84036",
"D&	c #EC703B",
"E&	c #F98844",
"F&	c #EC6F3B",
"G&	c #9B5E49",
"H&	c #C15E3A",
"I&	c #F68342",
"J&	c #FA8945",
"K&	c #FB8B46",
"L&	c #FD8E47",
"M&	c #FF9048",
"N&	c #FF9148",
"O&	c #F37D3F",
"P&	c #EE733C",
"Q&	c #EB6E3B",
"R&	c #E86D3B",
"S&	c #F17A3F",
"T&	c #F58142",
"U&	c #EB6E3A",
". . . . . . . . + @ # $ % & * = - ; > > > > > , ' ) ! ~ { ] ^ / > ( > _ : < < [ [ [ : . . } } } ",
". | 1 2 3 4 5 6 7 8 9 0 a b c d e f g h h > i j k l m n o p q r h h h s t u v w x w y z . } } } ",
"A B C D E F G H I J K L M N O P Q R S T U V W X Y Z `  ...+.@.h h h #.$.%.&.*.=.-.=.;.>.. } } } ",
",.'.).!.~.{.].^./.(._.:.<.[.}.|.1.2.3.4.5.6.7.8.9.0.a.b.c.d.e.f.h h g.h.i.j.k.l.m.l.n.z . } } } ",
"o.p.q.r.s.t.u.v.w.x.y.z.A.B.C.D.E.F.G.H.I.J.K.L.M.N.O.P.Q.R.S.T.U.h V.W.X.Y.Z.`. +.+++. . } } } ",
". @+#+$+%+&+*+=+-+;+>+,+'+)+!+~+{+]+^+/+(+_+:+<+[+}+|+1+2+3+4+5+6+7+8+9+0+a+b+c+d+e+. . . } } } ",
"f+g+h+i+j+k+l+m+n+o+p+q+r+s+t+u+v+w+x+y+z+A+B+C+D+E+F+G+H+I+J+K+L+M+N+O+P+Q+R+S+T+U+: . . } } } ",
"} V+W+X+Y+Z+`+ @.@+@@@#@$@%@&@*@=@-@;@>@,@'@)@!@!@~@{@]@^@/@(@_@:@<@[@}@|@1@2@3@4@!@: . . } } } ",
"} } 5@6@u v w x w 7@8@9@0@a@b@c@d@e@f@g@h@i@j@h h s k@l@m@n@o@p@q@r@s@t@u@v@w@x@y@!@: . . } } } ",
"} z@A@%.&.*.=.-.=.;.B@C@D@E@F@G@H@I@J@K@L@M@h h h N@O@P@Q@R@S@T@U@V@W@X@Y@Z@`@ #.#+#@#####$#} } ",
"} %#&#*#=#*.l.m.l.-#;#>#,#'#)#!#~#{#]#^#/#h h h (#_#:#<#[#}#|#1#2#3#4#5#6#7#8#9#.#0#a#b#c#d#e#} ",
"} f#g#h#i#j#k# +.+l#m#n#o#/ p#q#r#s#t#u#v#h h h s w#x#y#z#A#B#C#D#E#F#G#H#H#I#h I#i#J#K#L#M#N#} ",
"} O#P#Q#R#.#0#.#S#T#/ U#U#!@g.V#W#X#Y#Z#> ( ( h s `# $.$+$@$#$$$> !@!@h h h h h h u v w x w N#} ",
"##%$&$*$*$R#.#0#=$/ U#!@!@> ( -$;$>$U#U#> ( ( ( ( ,$'$)$!$~${$U#> !@!@h h h h h U#&.*.=.-.=.N#} ",
"]$^$/$($_$*$ +j#!@:$> > > <$<$( ( ( ( > > ( ( ( ( U#[$}$}$/ U#U#!@!@> h h h h U#U#=#*.l.m.l.|$} ",
"1$2$3$4$4$5$6$.#!@:$> U#> <$<$<$( U#!@!@!@!@( ( U#U#U#> > U#U#U#U#> > ( ( ( ( U#U#i#j#k# +.+} } ",
"7$8$9$0$a$b$c$.#+#d$e$e$f$<$<$<$<$!@!@!@!@!@!@> > > > > > > U#U#U#> > ( ( ( ( U#U#R#.#0#.#g$} } ",
"h$4#5#*$i$j$k$l$0#a#b#c#m$n$<$!@!@!@!@!@!@!@!@!@!@!@> <$<$<$<$<$<$> > > ( ( U#U#U#!@R#.#0###} } ",
"o$g$p$ + +q$Z#r$s$J#K#L#M#t$<$!@!@!@!@!@!@!@!@!@!@!@<$<$<$<$<$<$<$<$> u$> > !@!@!@!@!@ +j#!@} } ",
"} } } } v$w$x$y$z$A$B$L#C$t$h <$!@!@!@!@!@!@!@!@!@!@!@<$<$<$<$<$<$<$> D$> > > > h !@!@} .#!@} } ",
"} } } E$F$G$H$I$J$K$L$M$N$O$h h !@!@!@!@!@!@!@!@!@!@!@<$<$<$<$<$<$<$<$!@> > > h h h !@!@.#+#P$##",
". . . Q$R$S$T$U$V$W$X$Y$Z$`$h h !@!@!@!@!@!@!@!@!@!@!@!@<$<$<$<$<$<$!@!@> > > h h h h F#.#0#a#b#",
"+  %.%+%@%#%$%%%&%*%=%-%;%r <$<$!@!@!@!@!@!@!@!@!@!@!@!@!@<$!@!@!@!@!@!@> > h h h h h U#>%i#J#K#",
",%'%)%!%~%{%]%^%/%(%_%:%<%<$<$<$<$!@!@!@!@!@!@!@!@!@!@!@!@!@!@!@!@!@!@!@h h h h h h ( U#!@i#J#K#",
"[%}%|%1%2%3%4%5%6%7%8%9%0%<$<$<$<$!@!@!@!@!@!@!@!@!@!@!@!@!@!@!@!@!@!@!@h h h h h h U#U#!@a%b%c%",
"d%e%f%g%h%i%j%k%l%m%n%<$<$<$<$<$!@!@!@!@!@!@!@!@!@!@!@!@!@!@!@!@!@!@!@!@h h h h h h U#U#!@} a%o%",
"p%q%r%s%t%u%v%w%x%y%<$<$<$<$<$!@!@!@!@!@!@!@!@!@!@!@!@!@!@!@!@!@!@!@!@!@h h h h h h U#U#!@} } } ",
"z%A%B%C%D%E%_@F%G%H%h h <$<$<$!@!@!@!@!@!@!@!@!@!@!@!@!@!@!@!@!@!@!@!@!@h h h h ( ( U#U#I%} } } ",
"J%K%L%M%W$N%O%P%Q%s h h h <$<$<$!@!@!@!@!@!@!@!@!@!@!@!@!@!@!@!@!@!@!@!@( ( ( ( ( U#U#U#R%} } } ",
"} S%T%U%V%W%X%Y%Z%`% &h h h h <$<$!@!@!@!@!@!@!@!@!@!@!@!@!@!@!@!@!@!@!@!@( ( ( U#U#U#!@.&} } } ",
"} } } +&@&#&$&%&&&*&=&-&h h h h <$!@!@!@!@!@!@!@!@!@!@!@!@!@!@!@!@!@!@!@!@!@( U#U#!@!@!@. } } } ",
"} } } } } ;&>#>&,&'&)&!&r h h h <$!@!@!@!@!@!@!@!@!@!@!@!@!@!@!@!@!@!@!@!@!@!@!@!@!@!@!@. } } } ",
"} } } } } ~&{&]&^&/&(&_&U <$<$<$<$!@!@!@!@!@!@!@!@!@!@!@!@!@!@!@!@!@!@!@!@( ( ( U#U#U#!@. } } } ",
". . . } } ;&:&<&[&}&|&1&0%<$<$<$<$<$!@!@!@!@!@!@!@!@!@!@!@!@!@!@!@!@!@!@!@!@( U#U#!@!@!@} } } } ",
". . . } 2&>$3&4&5&6&7&8&h h h h <$<$<$!@!@!@!@!@!@!@!@!@!@!@!@!@!@!@!@!@!@!@!@!@!@!@!@!@9&} } } ",
". . . 0&a&( ( b&c&d&e&:$h h h h <$<$<$!@!@!@!@!@!@!@!@!@!@!@!@!@!@!@!@!@!@!@!@!@!@!@!@!@f&g&} } ",
"} } } h&i&( ( ( ( j&k&h h h h h <$<$<$!@!@!@!@!@!@!@!@!@!@!@!@!@!@!@!@!@!@!@!@!@!@h h !@l&m&. . ",
"} } n&o&> > ( ( ( ( h h h h h h <$!@!@!@!@!@!@!@!@!@!@!@!@!@!@!@!@!@!@!@!@!@h h h h h !@!@p&q&. ",
"} } r&h h h ( ( ( <$( h h h h <$<$!@!@!@!@!@!@!@!@!@!@!@!@!@!@!@!@!@!@!@!@h h h h h U#U#!@p&s&t&",
"} u&h h h h h h ( <$<$h h h <$<$!@!@!@!@!@!@!@!@!@!@!@!@!@!@!@!@!@!@!@!@!@h h h h h U#U#!@v&s&w&",
"x&y&h h h h h h h h <$<$<$h <$!@!@!@!@!@!@!@!@!@!@!@!@!@!@!@!@!@!@!@!@!@h h h h h ( U#U#!@v&s&w&",
"w&w&h h h h h h h h h h <$!@!@!@!@!@!@!@!@!@!@!@!@!@!@!@!@!@!@!@!@!@!@h h h h ( ( ( U#U#!@z&w&w&",
"w&w&( ( h h h h h h h h <$!@!@!@!@!@!@!@!@!@!@!@!@!@!@!@!@!@!@!@!@!@!@( ( ( ( ( ( U#U#U#!@A&w&w&",
"w&w&( ( h h h h h h h <$<$!@!@!@!@!@!@!@!@!@!@!@!@!@!@!@!@!@!@!@!@!@!@( ( ( ( ( ( U#U#U#!@s&w&w&",
"w&w&U#( ( ( h h h h h <$<$!@!@!@!@!@!@!@!@!@!@!@!@!@!@!@!@!@!@!@!@!@!@!@( ( ( ( ( U#U#!@B&s&w&w&",
"w&w&C&( ( ( ( h h h <$<$!@!@!@!@!@!@!@!@!@!@!@!@!@!@!@!@!@!@!@!@!@!@!@!@( ( ( ( ( U#U#!@D&s&w&w&",
"w&w&w&( ( ( ( ( <$<$<$!@!@!@!@!@!@!@!@!@!@!@!@!@!@!@!@!@!@!@!@!@!@!@!@!@!@( ( U#U#U#!@E&F&s&w&  ",
"  w&w&w&G&H&( ( <$I&J&K&L&M&N&N&!@!@!@N&N&N&!@!@!@!@!@N&N&N&!@!@!@O&P&Q&A&( ( U#U#R&S&T&U&s&w&w&"};
