/* XPM */
static char * avancer2_xpm[] = {
"48 48 19 1",
" 	c #315F59",
".	c #367F63",
"+	c #89AB83",
"@	c #453F60",
"#	c #2C253E",
"$	c #63778F",
"%	c #ADC3CC",
"&	c #5A2818",
"*	c #9B3C1B",
"=	c #DC6831",
"-	c #181818",
";	c #885038",
">	c #D08860",
",	c #204858",
"'	c #702818",
")	c #389088",
"!	c #C84830",
"~	c #F09850",
"{	c #78D8E8",
"         ...            .........      ...   ...",
"         ...            .........      ...   ...",
"         ...            .........      ...   ...",
"   ...............         .........      +++...",
"   ...............         .........      +++...",
"   ...............         .........      +++...",
"......               @@@@.....         +++      ",
"......              #$%%%@....         +++      ",
"......              #@$%$%#...         +++      ",
"...   +++            #@$%%@#     +++      ...   ",
"...   +++           #@$$$@###    +++      ...   ",
"...   +++          #@$@@##@&&#   +++      ...   ",
"......++++++      ##&@$%%$**&@##.++++++   ...   ",
"......++++++     #@&**=====*@$@#.++++++   ...   ",
"......++++++     #$$@**===$%$$@#.++++++   ...   ",
".........+++...  ##@$$$%%%%$@@#.....+++.........",
".........+++...   +-#@$$$$@@##-.....+++.........",
".........+++...   +;----####;-.--...+++.........",
"......   ++++++...++-;;>>>>;- ,;;-     .........",
"......   ++++++...+++-;;>>''''));-     .........",
"......   ++++++...+++--'''!~~!');-     .........",
"            ...     -'!~~~~~!!',-      ...   ...",
"            ...    ,))'!~~!!'',-       ...   ...",
"            ...  ;,{{{)'''))),-        ...   ...",
"      ......    ;>>){)),)){{!'         .........",
"      ......    ;>>),,-''!~~{),        .........",
"      ......    ->>;--,){{{{)),        .........",
".........       ---- -',,,,,,,.........+++   ...",
".........            -,''',''--........+++   ...",
".........            --,,-){{'-........+++   ...",
"......................----,,){-.....++++++      ",
"........................+-,,,)-.....++++++      ",
"........................+-,,,)-.....++++++      ",
"   ...      +++..........-,,,,-  ...+++......   ",
"   ...      +++..........-,,,-   ...+++......   ",
"   ...      +++..........----+   ...+++......   ",
".........++++++......      ++++++   +++...      ",
".........++++++...... ------+++++   +++...      ",
".........++++++......  -------+++   +++...      ",
"......   +++......   ------   +++...+++         ",
"......   +++......   +++      +++...+++         ",
"......   +++......   +++      +++...+++         ",
"...         ......   ++++++   +++...+++      ...",
"...         ......   ++++++   +++...+++      ...",
"...         ......   ++++++   +++...+++      ...",
"         ......               ..................",
"         ......               ..................",
"         ......               .................."};
