/* XPM */
static char * 0_xpm[] = {
"48 48 249 2",
"  	c #315F59",
". 	c #33785D",
"+ 	c #2F6D55",
"@ 	c #2A604B",
"# 	c #223E3A",
"$ 	c #255240",
"% 	c #223E3B",
"& 	c #274945",
"* 	c #2B524D",
"= 	c #2F5A55",
"- 	c #367F63",
"; 	c #32745A",
"> 	c #2B634D",
", 	c #234E3D",
"' 	c #192523",
") 	c #1A3027",
"! 	c #192725",
"~ 	c #223D39",
"{ 	c #284C47",
"] 	c #2E5853",
"^ 	c #315E58",
"/ 	c #305C56",
"( 	c #2F5A54",
"_ 	c #2D6B54",
": 	c #26594A",
"< 	c #1E3F32",
"[ 	c #141414",
"} 	c #1C181E",
"| 	c #244542",
"1 	c #2A514D",
"2 	c #2E5953",
"3 	c #34795E",
"4 	c #357C60",
"5 	c #367E62",
"6 	c #357C61",
"7 	c #32755B",
"8 	c #2C644E",
"9 	c #275B4B",
"0 	c #22493A",
"a 	c #1B352A",
"b 	c #141515",
"c 	c #141516",
"d 	c #141618",
"e 	c #141617",
"f 	c #1A1519",
"g 	c #203935",
"h 	c #254440",
"i 	c #305D58",
"j 	c #347A5F",
"k 	c #2F6E56",
"l 	c #1F4234",
"m 	c #1C372C",
"n 	c #182922",
"o 	c #004766",
"p 	c #05415D",
"q 	c #083B54",
"r 	c #093A53",
"s 	c #171719",
"t 	c #1B2C29",
"u 	c #1E3331",
"v 	c #2C534E",
"w 	c #305D57",
"x 	c #33785E",
"y 	c #2C6650",
"z 	c #24503E",
"A 	c #192C23",
"B 	c #151415",
"C 	c #14171B",
"D 	c #004665",
"E 	c #04425F",
"F 	c #141517",
"G 	c #191518",
"H 	c #294F4A",
"I 	c #2F5C56",
"J 	c #33765C",
"K 	c #317259",
"L 	c #2D6A54",
"M 	c #234646",
"N 	c #1E3432",
"O 	c #161D1C",
"P 	c #13191F",
"Q 	c #171517",
"R 	c #1F3734",
"S 	c #254644",
"T 	c #2A504C",
"U 	c #2D5650",
"V 	c #2F6C54",
"W 	c #2A624C",
"X 	c #265848",
"Y 	c #1B2B29",
"Z 	c #151A19",
"` 	c #141415",
" .	c #161417",
"..	c #1B2D2B",
"+.	c #203835",
"@.	c #24423E",
"#.	c #274A46",
"$.	c #2A614B",
"%.	c #234D3C",
"&.	c #1D3C30",
"*.	c #171516",
"=.	c #14181B",
"-.	c #024765",
";.	c #1B161A",
">.	c #213C38",
",.	c #274A45",
"'.	c #24413D",
").	c #1B2B28",
"!.	c #004767",
"~.	c #05405B",
"{.	c #1E3D30",
"].	c #285A46",
"^.	c #004765",
"/.	c #004969",
"(.	c #004868",
"_.	c #004867",
":.	c #221821",
"<.	c #027CB4",
"[.	c #0287C4",
"}.	c #0286C2",
"|.	c #0286C3",
"1.	c #0170A3",
"2.	c #014664",
"3.	c #231821",
"4.	c #2E1C2C",
"5.	c #016A99",
"6.	c #004D6F",
"7.	c #004A6B",
"8.	c #0284BF",
"9.	c #004B6C",
"0.	c #5E765A",
"a.	c #3C4B39",
"b.	c #42523F",
"c.	c #617A5D",
"d.	c #89AB83",
"e.	c #016A9B",
"f.	c #014A6B",
"g.	c #14171A",
"h.	c #036897",
"i.	c #275744",
"j.	c #1C382C",
"k.	c #0287C3",
"l.	c #0C6492",
"m.	c #114767",
"n.	c #114766",
"o.	c #0D608C",
"p.	c #0B6A9A",
"q.	c #0778AE",
"r.	c #114362",
"s.	c #141A1F",
"t.	c #132B3D",
"u.	c #0777AD",
"v.	c #1D3532",
"w.	c #172422",
"x.	c #123E59",
"y.	c #133045",
"z.	c #182725",
"A.	c #1D3734",
"B.	c #254D48",
"C.	c #141E27",
"D.	c #141B22",
"E.	c #141619",
"F.	c #141A21",
"G.	c #14181C",
"H.	c #14161A",
"I.	c #014765",
"J.	c #014665",
"K.	c #004A6A",
"L.	c #14181D",
"M.	c #202526",
"N.	c #191B1C",
"O.	c #0285C2",
"P.	c #005175",
"Q.	c #0385C1",
"R.	c #11415F",
"S.	c #1C2E2C",
"T.	c #24443F",
"U.	c #24503F",
"V.	c #191B1B",
"W.	c #17191A",
"X.	c #0779B1",
"Y.	c #0486C2",
"Z.	c #17191B",
"`.	c #1B1E1F",
" +	c #284B47",
".+	c #275946",
"++	c #1D2122",
"@+	c #1A1C1D",
"#+	c #15181A",
"$+	c #067AB2",
"%+	c #161717",
"&+	c #1A1D1D",
"*+	c #1E2223",
"=+	c #212627",
"-+	c #2B534E",
";+	c #32745B",
">+	c #2E6C55",
",+	c #254541",
"'+	c #1E3532",
")+	c #171E1D",
"!+	c #192B23",
"~+	c #264642",
"{+	c #2B524E",
"]+	c #2D5752",
"^+	c #294E49",
"/+	c #151C1F",
"(+	c #0486C3",
"_+	c #0386C3",
":+	c #23403C",
"<+	c #2A4F4A",
"[+	c #1B2C2A",
"}+	c #182220",
"|+	c #067CB4",
"1+	c #171919",
"2+	c #1C2E2B",
"3+	c #1F3633",
"4+	c #233F3B",
"5+	c #284B46",
"6+	c #2C544F",
"7+	c #294D48",
"8+	c #1A2A28",
"9+	c #141716",
"0+	c #1D3A2E",
"a+	c #213B37",
"b+	c #254847",
"c+	c #2C544E",
"d+	c #305E58",
"e+	c #2F5B56",
"f+	c #275B4C",
"g+	c #1F4133",
"h+	c #14191F",
"i+	c #151817",
"j+	c #204436",
"k+	c #285C48",
"l+	c #2F6F57",
"m+	c #33795E",
"n+	c #357D61",
"o+	c #1C372B",
"p+	c #172322",
"q+	c #1C382D",
"r+	c #255341",
"s+	c #2C6750",
"t+	c #2B624D",
"u+	c #265643",
"v+	c #23413D",
"w+	c #265744",
"x+	c #2B644E",
"y+	c #306F57",
"z+	c #34795F",
"                  . + @ # # # # # # # # # # # # $ $ $ $ $ $ $ $ $ # % & * =   - - -       - - - ",
"                  ; > , ' ' ' ' ' ' ' ' ' ' ' ' ) ) ) ) ) ) ) ) ) ' ! ~ { ]   - - -       - - - ",
"          ^ / ( ] _ : < [ [ [ [ [ [ [ [ [ [ [ [ [ [ [ [ [ [ [ [ [ [ [ } | 1 2 3 4 5       - - - ",
"      - - 6 7 + 8 9 0 a [ b c [ [ [ [ [ d [ e [ [ [ [ [ [ [ [ [ [ [ [ f g h { * ] i       - - - ",
"      - - j k @ , l m n [ o o o o o o o o o p p p p p p p p p q q r q s t u ~ & v w       - - - ",
"      - - x y z A B [ C o o o o o o o o o o o D D D D D D o o o o D o E F B G % H I       - - - ",
"- - - J K L M N O [ P o o o o o o o o o o o o o o o o o o o o o o o o o D c Q R S T U 2   - - - ",
"- - - V W X R Y Z ` o o o o o o o o o o o o o o o o o o o o o o o o o o o o  ...+.@.#.*   - - - ",
"- - - $.%.&.G *.=.o o o o o o o o o o o o o o o o o o o o o o o o o o o o o -.Q G ;.>.,.  - - - ",
"- - - '.).[ [ C o o o o o o o o o o o o o o o o o o o o !.!.o o o o o o o o o ~.[ [ {.].- - - - ",
"- - - '.).[ [ ^.o o o o /./.(.(./._.!.(._.o o o o o o o o o o o _.o _.o o o o o b [ {.].- - - - ",
"- - - :.f [ F o o o !.<.[.[.[.[.[.[.[.[.[.}.[.[.|.}.[.[.[.[.[.|.|.|.}.1.o o 2.o [ ` ;.3.4.- - - ",
"- - - :.f [ b o o o 5.[.[.[.[.[.[.[.[.[.[.[.[.[.[.[.[.[.[.[.[.[.[.[.[.[.6.o o o [ [ ;.3.4.- - - ",
"- - - :.f [ [ o o 7.[.[.[.[.[.[.[.[.[.[.[.[.[.[.[.[.[.[.[.[.[.[.[.[.[.[.8.9.o o [ [ ;.3.4.- - - ",
"4.4.4.0.a.[ [ o o [.[.[.[.[.[.[.[.[.[.[.[.[.[.[.[.[.[.[.[.[.[.[.[.[.[.[.[.<._.o [ ` b.c.d.4.4.4.",
"4.4.4.0.a.[ ` o [.[.[.[.[.[.[.[.[.[.[.[.[.[.[.[.[.[.[.[.[.[.[.[.[.[.[.[.[.[.e.f.[ [ b.c.d.4.4.4.",
"4.4.4.0.a.[ g.[.[.|.[.[.[.[.[.[.[.[.[.[.[.[.[.[.[.[.[.[.[.[.[.[.[.[.[.[.[.[.[.h.[ [ b.c.d.4.4.4.",
"4.4.4.i.j.[ b [.[.[.[.[.[.[.[.[.[.[.[.[.[.}.}.[.[.[.[.[.[.k.[.[.[.[.[.[.[.[.[.|.[ [ {.].- 4.4.4.",
"4.4.4.i.j.[ [ [.[.[.[.[.[.[.[.[.[.[.|.l.m.m.m.n.o.p.p.q.[.[.[.[.[.[.[.[.[.[.[.|.[ [ {.].- 4.4.4.",
"4.4.4.i.j.[ [ [.[.[.[.[.[.[.[.[.[.[.p.r.d [ [ [ [ [ s.t.u.[.[.[.[.[.[.[.[.[.[.|.[ [ {.].- 4.4.4.",
"4.4.4.v.w.[ ` |.[.[.[.[.[.[.[.[.[.[.x.[ [ [ [ [ [ [ [ [ y.[.[.[.[.[.[.[.[.[.[.[.[ [ z.A.B.4.4.4.",
"4.4.4.v.w.[ ` [.[.[.[.[.[.[.[.[.[.[.C.[ [ [ [ [ [ [ [ [ D.[.[.[.[.[.[.[.[.[.[.[.[ [ z.A.B.4.4.4.",
"4.4.4.v.w.[ ` [.[.[.[.[.[.[.[.[.[.[.` [ [ [ [ [ [ [ [ [ E.[.[.[.[.[.[.[.[.[.[.[.[ [ z.A.B.4.4.4.",
"4.4.4.v.w.[ E.[.[.[.[.[.[.[.[.[.[.[.[ [ [ [ [ [ [ [ [ [ F [.[.[.[.[.[.[.[.[.[.[.[ [ z.A.B.4.4.4.",
"4.4.4.v.w.[ F.[.[.[.[.[.[.[.[.[.[.[.G.[ [ [ [ [ [ [ [ [ F k.[.[.[.[.[.[.[.[.[.[.[ [ z.A.B.4.4.4.",
"4.4.4.v.w.[ [ [.[.[.[.[.[.[.[.[.[.[.[ c [ [ [ [ [ [ [ [ [ k.[.[.[.[.[.[.[.[.[.[.[ [ z.A.B.4.4.4.",
"      :.f [ [ |.[.[.[.[.[.[.[.[.[.k.[ c [ [ [ [ [ [ [ [ b [.[.[.[.[.[.[.[.[.[.[.[ [ ;.3.4.- - - ",
"- - - :.f [ [ [.[.[.[.[.[.[.[.[.[.[.E.[ [ [ [ [ [ [ [ [ d [.[.[.[.[.[.[.[.[.[.[.[ [ ;.3.4.- - - ",
"- - - :.f [ [ [.[.[.[.[.[.[.[.[.[.[.C [ [ c [ [ [ [ [ [ d [.[.[.[.[.[.[.[.[.[.|.[ [ ;.3.4.- - - ",
"4.4.4.v.w.[ H.[.[.[.[.[.[.[.[.[.[.[.p I.o J.o o o o ^.o o |.[.[.[.[.[.[.[.[.[.[.[ [ z.A.B.4.4.4.",
"4.4.4.v.w.[ c [.[.[.[.[.[.[.[.[.[.[.K.o o o o o o o o o o [.[.[.[.[.[.[.[.[.[.[.L.[ z.A.B.4.4.4.",
"4.4.4.v.w.[ F [.[.[.[.[.[.[.[.[.[.[./.o o o o o o o o o o [.[.[.[.[.[.[.[.[.[.k.` [ z.A.B.4.4.4.",
"4.4.4.v.w.[ d |.[.[.[.[.[.[.[.[.[.[.(.o o o o o o o o o o [.[.[.[.[.[.[.[.[.[.[.F [ z.A.B.4.4.4.",
"4.4.4.v.w.[ F }.[.[.[.[.[.[.[.[.[.[.o o o o o o o o o o o [.[.[.[.[.[.[.[.[.[.[.c [ z.A.B.4.4.4.",
"4.4.4.v.w.[ ` [.[.[.[.[.[.[.[.[.[.[.o o o o o o o o o o /.[.[.[.[.[.[.[.[.[.[.|.[ [ z.A.B.4.4.4.",
"      M.N.[ [ [.[.[.[.[.[.[.[.[.[.[.|./.!.o o o o o o /.k.[.[.[.[.[.[.[.[.[.[.k.[ [ z.A.B.- - - ",
"- - - M.N.[ b [.[.[.[.[.[.[.[.[.[.[.[.O.P.o o _./._.9.[.[.[.[.[.[.[.[.[.[.[.[.Q.[ [ z.A.B.      ",
"- - - M.N.[ c [.[.[.[.[.[.[.[.[.[.[.[.[.[.[.[.[.[.[.[.[.[.[.[.[.[.[.[.[.[.[.[.Q.[ [ z.A.B.      ",
"- - - i.j.[ [ R.[.[.[.[.[.[.[.[.[.[.[.[.[.k.k.[.[.[.[.[.[.[.[.[.[.[.[.[.[.[.[.[.[ [ S.T.        ",
"- - - > U.< V.W.X.[.[.[.[.[.[.[.[.[.[.[.[.[.[.[.[.[.[.[.[.[.[.[.[.[.[.[.[.[.Y.Z.N.`.%  +        ",
"- - - k 8 .+++@+#+$+[.[.[.[.[.[.[.[.[.[.[.[.[.[.[.[.[.[.[.[.[.[.[.[.[.[.[.[.%+&+*+=+{ -+        ",
"- - - . ;+>+,+'+)+L.[.[.[.[.[.[.[.[.[.[.[.[.[.[.[.[.[.[.[.[.[.[.[.[.[.[.[.c !+R ~+{+]+(         ",
"- - -     ( ^+# ! O /+(+[.[.[.[.[.[.[.[.[.[.[.[.[.[.[.[.[.[.[.[.[.[.[._+Z O ).:+<+I       - - - ",
"- - -     I -+& # '+[+}+|+[.[.[.[.[.[.[.[.[.[.[.[.[.[.[.[.[.[.[.[.k.[.1+2+3+4+5+6+w       - - - ",
"- - -     w ] -+7+,+g 8+[ u.[.[.[.[.[.[.[.[.|.[.[.[.[.[.[.[.[.[.|.[.9+0+a+b+^+c+2 d+      - - - ",
"          ^ w e+( >+f+g+[ [ h+C F ` [ b ` [ [ [ [ [ [ [ [ ` ` [ [ [ i+j+k+l+m+j n+5 - - - - - - ",
"                  7 8 U.o+o+o+p+p+p+V.V.V.8+8+8+8+8+8+p+p+p+V.V.V.o+q+r+s+J - - - - - - - - - - ",
"                  x k t+u+u+u+v+v+v+v+v+v+v+v+v+v+v+v+u+u+u+u+u+u+u+w+x+y+z+- - - - - - - - - - "};
