/* XPM */
static char * ennemy_xpm[] = {
"48 48 16 1",
" 	c #315F59",
".	c #367F63",
"+	c #89AB83",
"@	c #2F2F2E",
"#	c #484846",
"$	c #3B3B39",
"%	c #5E182C",
"&	c #741A33",
"*	c #9E293B",
"=	c #DAA935",
"-	c #69483A",
";	c #DA8335",
">	c #D2735D",
",	c #EC8C76",
"'	c #9299A4",
")	c #F1F0FD",
"         ...            .........      ...   ...",
"         ...            .........      ...   ...",
"         ...            .........      ...   ...",
"   ...............         .........      +++...",
"   ...............         .........      +++...",
"   ...............         .........      +++...",
"......               .........         +++      ",
"......@@             ....@@@@@@@       +++      ",
"......@#@     @@@@@@ ....@$$$$$#@@@    +++      ",
"... @@@$#@    @$$$$#@@++..@@@$$$$$#@@     ...   ",
"...@$$$$#@     @@@$$$#@@@..  @$$$$$$#@    ...   ",
"..@$$%&%$#@       @$$$$$#@@@@@@@$$$$$#@   ...   ",
".@$$%&&&%$@+@@    @$$$$$$$###&&&&&%$$$#@  ...   ",
".@$%&&&&&$#@#@    +@@$$$$$$$$#&**&&**&$#@ ...   ",
".@%&@@&&&%$$#@    +@@@%&$$$$$$$#******&#@ ...   ",
"@&&@.@%&&&$$@..   +@$$$&&&&&&$$$#**&***&@.......",
"@&&@..@&&&$$@..   +@%&&&**&*&**&$***&*&**@......",
"@&&@..@&&&$$@.@@  @$$&&*****&*******&**&*@......",
"@&&@..@&&&%$@@#@..@&&&&&*******&**&&====&&@.....",
"@%&@..@%&&&$$$#@..@&&&**********&&&====-=&@.....",
".@&&@. @&&&%$$$@@@%&&*******&&==&&&;===-;&=@....",
" @%&@  @&&&&%$$$$@&&&&&****&&;;-;&&;;;;-;&;@ ...",
"  @%&@ @&&&&&&&&&@&&&*******&&;;&&&&;;;;&&&@ ...",
"   @@@ @&&&&&&&&@%&&&&********&&&***&&&&****@...",
"      .@%&&&&&&@@$$$$%&&&******&&&&*******&&@@..",
"      ..@&&&&&@$$$$$$$$$******&>,,,&&&&&&&>,*@@.",
"      ..@&&&&@$$$$$$$$$#&&&&&&>,--->,,,,,>-'*@#@",
"..@@@@@..@@@@$$$$$$$$$#@%>>>>>,-'-)@)@)@'-@)@@#@",
"..@$$$$@@@@$$$$$$$$$$#@&*>@>@>)@)@)@@@@@)@>@@@@.",
"...@$$$$$$$$$$$$$$$##@&&&*>,@,@@)@@@@@@@@@>@ ...",
"....@@@$$$$$$$$$$##@@&&&&*>,@,@@@%%%%@%@@)>@    ",
".......@@@#######@@&&&&&&&*>@,@%%%%%%%@%@'@@    ",
"..........@@@@@@@@@&&&&&&&*>@,@@%%%%%%%%@@)@    ",
"   ...      +++...@&&&&&&&&*>,@)@@%%@@%%@@)@.   ",
"   ...      +++....@&%&&&&&*>>-)@)@@)@@@)-,*@   ",
"   ...      +++....@&@&&&&&&*>>'-'--)@@)'->*@   ",
".........++++++.....@@&&&&&&&**>,,>-''-->,*@    ",
".........++++++......@&&%&&&&&&****>,,,>**@     ",
".........++++++...... @&@&&&%&&&&&&*****&@      ",
"......   +++......   ++@@&&&@&&&&@$&&&&#@       ",
"......   +++......   +++ @@&@&&&&@$####@        ",
"......   +++......   +++   @@&&&&@$###@         ",
"...         ......   ++++++  @@@@@@###@      ...",
"...         ......   ++++++   +++.@$#@+      ...",
"...         ......   ++++++   +++..@$@+      ...",
"         ......               ......@@..........",
"         ......               ..................",
"         ......               .................."};
