/* XPM */
static char * sol48x48_xpm[] = {
"48 48 3 1",
" 	c #315F59",
".	c #367F63",
"+	c #89AB83",
"         ...            .........      ...   ...",
"         ...            .........      ...   ...",
"         ...            .........      ...   ...",
"   ...............         .........      +++...",
"   ...............         .........      +++...",
"   ...............         .........      +++...",
"......               .........         +++      ",
"......               .........         +++      ",
"......               .........         +++      ",
"...   +++            +++...      +++      ...   ",
"...   +++            +++...      +++      ...   ",
"...   +++            +++...      +++      ...   ",
"......++++++      ++++++.........++++++   ...   ",
"......++++++      ++++++.........++++++   ...   ",
"......++++++      ++++++.........++++++   ...   ",
".........+++...   +++   ............+++.........",
".........+++...   +++   ............+++.........",
".........+++...   +++   ............+++.........",
"......   ++++++...+++......            .........",
"......   ++++++...+++......            .........",
"......   ++++++...+++......            .........",
"            ...         ......         ...   ...",
"            ...         ......         ...   ...",
"            ...         ......         ...   ...",
"      ......               ...         .........",
"      ......               ...         .........",
"      ......               ...         .........",
".........               ...............+++   ...",
".........               ...............+++   ...",
".........               ...............+++   ...",
"........................+++.........++++++      ",
"........................+++.........++++++      ",
"........................+++.........++++++      ",
"   ...      +++............+++   ...+++......   ",
"   ...      +++............+++   ...+++......   ",
"   ...      +++............+++   ...+++......   ",
".........++++++......      ++++++   +++...      ",
".........++++++......      ++++++   +++...      ",
".........++++++......      ++++++   +++...      ",
"......   +++......   +++      +++...+++         ",
"......   +++......   +++      +++...+++         ",
"......   +++......   +++      +++...+++         ",
"...         ......   ++++++   +++...+++      ...",
"...         ......   ++++++   +++...+++      ...",
"...         ......   ++++++   +++...+++      ...",
"         ......               ..................",
"         ......               ..................",
"         ......               .................."};
