/* XPM */
static char * fox_xpm[] = {
"48 48 342 2",
"  	c #315F59",
". 	c #367F63",
"+ 	c #50685D",
"@ 	c #242424",
"# 	c #363636",
"$ 	c #4E6C68",
"% 	c #222222",
"& 	c #3A504D",
"* 	c #44836A",
"= 	c #50675C",
"- 	c #0F0000",
"; 	c #2A2525",
"> 	c #416661",
", 	c #57726E",
"' 	c #000000",
") 	c #010101",
"! 	c #394F4C",
"~ 	c #45836A",
"{ 	c #3E4240",
"] 	c #3E3E3E",
"^ 	c #B52626",
"/ 	c #E20505",
"( 	c #DD0808",
"_ 	c #3D3D3D",
": 	c #1E1E1E",
"< 	c #2F2F2F",
"[ 	c #6A6C6B",
"} 	c #04150E",
"| 	c #B70303",
"1 	c #E80505",
"2 	c #E30505",
"3 	c #020202",
"4 	c #1F1F1F",
"5 	c #151515",
"6 	c #5A5D5B",
"7 	c #496659",
"8 	c #466456",
"9 	c #B4100D",
"0 	c #B30303",
"a 	c #D12F2F",
"b 	c #E43E3E",
"c 	c #E53636",
"d 	c #E60505",
"e 	c #AF0404",
"f 	c #1C1F1F",
"g 	c #1B1B1B",
"h 	c #404141",
"i 	c #64796F",
"j 	c #1D1D1D",
"k 	c #EA0505",
"l 	c #E33F3F",
"m 	c #E05353",
"n 	c #E24949",
"o 	c #E30606",
"p 	c #1A1F1F",
"q 	c #5F5F5F",
"r 	c #E43838",
"s 	c #E14A4A",
"t 	c #E34141",
"u 	c #E70505",
"v 	c #E40505",
"w 	c #89AB83",
"x 	c #010000",
"y 	c #890505",
"z 	c #C60404",
"A 	c #2C2C2C",
"B 	c #850707",
"C 	c #850505",
"D 	c #C50404",
"E 	c #626262",
"F 	c #58726E",
"G 	c #57716D",
"H 	c #211111",
"I 	c #1E0101",
"J 	c #700303",
"K 	c #8C0505",
"L 	c #A70505",
"M 	c #161616",
"N 	c #030303",
"O 	c #585959",
"P 	c #516E6A",
"Q 	c #690303",
"R 	c #A20505",
"S 	c #5A5B5B",
"T 	c #7A9488",
"U 	c #7B9489",
"V 	c #696A64",
"W 	c #410101",
"X 	c #630202",
"Y 	c #A30505",
"Z 	c #A50505",
"` 	c #101010",
" .	c #0A0A0A",
"..	c #5B6D64",
"+.	c #6F7F7D",
"@.	c #4B6559",
"#.	c #420101",
"$.	c #090909",
"%.	c #34604E",
"&.	c #4D7463",
"*.	c #375A4B",
"=.	c #485144",
"-.	c #680303",
";.	c #6C0303",
">.	c #C70404",
",.	c #C20505",
"'.	c #121616",
").	c #425A4F",
"!.	c #3F715C",
"~.	c #37725A",
"{.	c #110000",
"].	c #820505",
"^.	c #54816D",
"/.	c #3C755E",
"(.	c #383838",
"_.	c #3A3636",
":.	c #840505",
"<.	c #810909",
"[.	c #55826E",
"}.	c #34605A",
"|.	c #3E655F",
"1.	c #3E645F",
"2.	c #080000",
"3.	c #302E2E",
"4.	c #428268",
"5.	c #398064",
"6.	c #357A5F",
"7.	c #35755C",
"8.	c #35735A",
"9.	c #315853",
"0.	c #315D58",
"a.	c #315E58",
"b.	c #315D57",
"c.	c #367D62",
"d.	c #367E63",
"e.	c #367C61",
"f.	c #346E57",
"g.	c #325F4D",
"h.	c #325948",
"i.	c #304B47",
"j.	c #315953",
"k.	c #30544F",
"l.	c #315651",
"m.	c #35775D",
"n.	c #34725A",
"o.	c #325A49",
"p.	c #304138",
"q.	c #333430",
"r.	c #2F3937",
"s.	c #304E4A",
"t.	c #2F3533",
"u.	c #303F3C",
"v.	c #30403D",
"w.	c #313B35",
"x.	c #9C5123",
"y.	c #BD6834",
"z.	c #D07741",
"A.	c #2F3432",
"B.	c #304945",
"C.	c #2F302F",
"D.	c #33312F",
"E.	c #313634",
"F.	c #304B46",
"G.	c #304D49",
"H.	c #315244",
"I.	c #303E37",
"J.	c #FFFFFF",
"K.	c #FCF8F7",
"L.	c #A67663",
"M.	c #313D3A",
"N.	c #315751",
"O.	c #315A55",
"P.	c #304F4A",
"Q.	c #2F3D3A",
"R.	c #2F3332",
"S.	c #9C5022",
"T.	c #9B5023",
"U.	c #2F3534",
"V.	c #2F3E3B",
"W.	c #304C48",
"X.	c #315445",
"Y.	c #313F38",
"Z.	c #D59880",
"`.	c #D17843",
" +	c #30514C",
".+	c #315C56",
"++	c #315A54",
"@+	c #304A46",
"#+	c #303735",
"$+	c #8F4C26",
"%+	c #874926",
"&+	c #323A34",
"*+	c #314F41",
"=+	c #30463C",
"-+	c #2F3833",
";+	c #DC977A",
">+	c #D57942",
",+	c #34483C",
"'+	c #336651",
")+	c #315954",
"!+	c #30524D",
"~+	c #2F3836",
"{+	c #313130",
"]+	c #44332D",
"^+	c #2F2F2E",
"/+	c #F9F7F7",
"(+	c #FDFBFA",
"_+	c #E3AD98",
":+	c #D57841",
"<+	c #38493C",
"[+	c #2F3130",
"}+	c #9B4F21",
"|+	c #9D5021",
"1+	c #9A4F22",
"2+	c #D67941",
"3+	c #30473C",
"4+	c #35795F",
"5+	c #346D56",
"6+	c #325B49",
"7+	c #314C3F",
"8+	c #493F35",
"9+	c #CF753F",
"0+	c #D47841",
"a+	c #D27740",
"b+	c #D37740",
"c+	c #D07640",
"d+	c #C9723F",
"e+	c #35312E",
"f+	c #9C4F21",
"g+	c #CC723C",
"h+	c #35785E",
"i+	c #346B55",
"j+	c #325747",
"k+	c #3B3932",
"l+	c #9C5124",
"m+	c #D17640",
"n+	c #34302E",
"o+	c #D57941",
"p+	c #314139",
"q+	c #86A780",
"r+	c #88AA82",
"s+	c #367E62",
"t+	c #357B60",
"u+	c #386B54",
"v+	c #325646",
"w+	c #30302E",
"x+	c #9F5224",
"y+	c #C66E3A",
"z+	c #BA693A",
"A+	c #9F5225",
"B+	c #9E542C",
"C+	c #D18058",
"D+	c #D77D49",
"E+	c #D88051",
"F+	c #D57D4C",
"G+	c #B57E65",
"H+	c #30483D",
"I+	c #325D4B",
"J+	c #81A07B",
"K+	c #87A982",
"L+	c #30534E",
"M+	c #304441",
"N+	c #2F3735",
"O+	c #8D5435",
"P+	c #9E5C38",
"Q+	c #6C3E2A",
"R+	c #A05324",
"S+	c #904C25",
"T+	c #B8B8B8",
"U+	c #C2C2C2",
"V+	c #E5E5E5",
"W+	c #FEFDFD",
"X+	c #FFFEFE",
"Y+	c #E8E8E8",
"Z+	c #2F3531",
"`+	c #31493D",
" @	c #7D9C78",
".@	c #87A881",
"+@	c #35745B",
"@@	c #2F3C3A",
"#@	c #2F3231",
"$@	c #33302F",
"%@	c #333332",
"&@	c #343433",
"*@	c #B9B9B9",
"=@	c #2F3733",
"-@	c #314B3F",
";@	c #7E9C78",
">@	c #D67A45",
",@	c #BCBCBC",
"'@	c #FAFAFA",
")@	c #FDFDFD",
"!@	c #F9F9F9",
"~@	c #314038",
"{@	c #325847",
"]@	c #346F58",
"^@	c #85A67F",
"/@	c #D67B45",
"(@	c #30302F",
"_@	c #302F2E",
":@	c #31302F",
"<@	c #3A3635",
"[@	c #465243",
"}@	c #304642",
"|@	c #30524E",
"1@	c #35765C",
"2@	c #315243",
"3@	c #313D36",
"4@	c #9B5224",
"5@	c #885135",
"6@	c #C36F3E",
"7@	c #C26F3E",
"8@	c #414140",
"9@	c #B2663B",
"0@	c #BF6E40",
"a@	c #5E705A",
"b@	c #3A5853",
"c@	c #315B55",
"d@	c #325042",
"e@	c #97562D",
"f@	c #D57A42",
"g@	c #D47C47",
"h@	c #B8B8B7",
"i@	c #B9B9B8",
"j@	c #FEFEFE",
"k@	c #2F312F",
"l@	c #6D4733",
"m@	c #D27841",
"n@	c #373837",
"o@	c #383938",
"p@	c #D07742",
"q@	c #D37942",
"r@	c #D17841",
"s@	c #594033",
"t@	c #687B60",
"u@	c #30504B",
"v@	c #3D453B",
"w@	c #303B35",
"x@	c #3E453B",
"y@	c #677F63",
"z@	c #769371",
"A@	c #7F9E79",
"                  . . .                         . . . . . . . . + @ @ @ #   $ % @ @ @ &   . . . ",
"                  . . .                         . . . . . . * * = - - - ; > , ' ) ) ) ! > ~ . . ",
"                  . . .                         . . . . . . { ] ^ / / / ( ] _ : : : : < ] [ . . ",
"      . . . . . . . . . . . . . . .                   . . . } ' | 1 1 1 2 ' 3 4 4 4 4 5 ' 6 . . ",
"      . . . . . . . . . . . . . . .                   . 7 8 9 0 a b c 1 d 0 e f 4 4 4 g 5 h 8 i ",
"      . . . . . . . . . . . . . . .                   . j ' k 1 l m n 1 1 1 o p 4 4 4 4 4 g ' q ",
". . . . . .                               . . . . . . . j ' k 1 r s t 1 1 1 o p 4 4 4 4 4 g ' q ",
". . . . . .                               . . . . . . . j ' k 1 1 1 1 1 1 1 o p 4 4 4 4 4 g ' q ",
". . . . . .                               . . . . . . . j ' u v u 1 1 1 1 1 o p 4 4 4 4 4 g ' q ",
". . .       w w w                         w w w . . .   j x y y z 1 1 1 1 1 o p 4 4 4 4 4 g ' q ",
". . .       w w w                         w w w . . .   A 4 B C D 1 1 1 1 1 o p 4 4 4 4 4 : 4 E ",
". . .       w w w                         w w w . . .   F G H I J K L 1 1 1 o p 4 4 4 M N O G P ",
". . . . . . w w w w w w             w w w w w w . . . . . . } ' Q C R 1 1 1 o p 4 4 4 5 ' S     ",
". . . . . . w w w w w w             w w w w w w . . . . . . T U V W X Y Z 1 o p 4 `  ...U +.    ",
". . . . . . w w w w w w             w w w w w w . . . . . . . . @.' #.C y 1 o p 4 $.' %..       ",
". . . . . . . . . w w w . . .       w w w       . . . . . . . . &.*.=.-.;.>.,.'.5 ).*.!.. . . . ",
". . . . . . . . . w w w . . .       w w w       . . . . . . . . . . ~.' {.C ].' ' ^.. . . . . . ",
". . . . . . . . . w w w . . .       w w w       . . . . . . . . . . /.(._.:.<.(.(.[.. . . . . . ",
". . . . . .       w w w w w w . . . w w w . . . . . .               }.|.1.2.3.4.4.5.. . . . . . ",
". . . . . .       w w w w w w . . . w w w . . . . . .                     N < . . . . . . . . . ",
". . . . . .       w w w w w w . . . w w w . . . . . .                         . . . . . . . . . ",
"                        . . .                   . . . 6.7.8.9.0.              . . .       . . . ",
"                        . . .         a.b.b.b.b.c.d.e.f.g.h.i.j.b.            . . .       . . . ",
"                        . . .       b.j.k.k.k.l.m.e.n.o.p.q.r.s.9.b.          . . .       . . . ",
"            . . . . . .             j.i.t.t.t.u.s.9.v.w.x.y.z.A.i.j.          . . . . . . . . . ",
"            . . . . . .             9.B.C.C.D.E.v.F.G.H.I.J.K.L.M.F.N.        . . . . . . . . . ",
"            . . . . . .             O.P.Q.R.S.T.U.V.W.X.Y.J.J.Z.`.v. +        . . . . . . . . . ",
". . . . . . . . .       a.b..+.+.+.+++k.@+#+$+T.%+&+*+=+-+J.J.;+>+,+'+. . . . w w w       . . . ",
". . . . . . . . .       )+k.!+!+!+!+!+ +W.~+{+]+^+^+^+^+^+/+(+_+:+<+'+. . . . w w w       . . . ",
". . . . . . . . .       P.Q.[+[+[+[+[+[+[+C.}+|+|+|+|+1+2+2+2+2+2+3+'+. . . . w w w       . . . ",
". . . . . . . . 4+5+6+6+7+8+9+0+a+b+c+d+e+f+|+|+|+|+}+g+2+2+2+2+2+3+'+. w w w w w w             ",
". . . . . . . h+i+j+I.I.k+l+2+2+2+2+2+m+n+|+|+|+|+|+^+^+^+2+2+2+o+p+o.n.q+r+w w w w             ",
". . . . . s+t+u+v+p.^+^+w+|+x+y+g+z+^+^+^+^+|+A+|+B+C+0+2+2+D+E+F+G+H+I+J+K+w w w w             ",
"      . s+t+L+M+N+O+P+2+w+Q+1+T.R+S+^+^+^+^+T+T+U+V+J.J.J.W+X+J.J.Y+Z+`+ @.@w . . . . . .       ",
"      . c.+@@@#@|+o+2+2+$@^+%@&@&@^+^+*@T+T+T+T+*@J.J.J.J.J.J.J.J.Y+=@-@;@.@w . . . . . .       ",
"      . c.+@@@#@|+o+2+2+>@J.J.J.J.J.^+T+T+T+,@T+'@J.J.J.J.)@)@!@J.~@{@]@^@r+w . . . . . .       ",
". . . . c.+@H+Z+|+o+2+2+/@J.J.J.J.J.(@^+^+^+^+_@(@(@^+^+:@:@<@^+[@}@|@b.r+w w . . .             ",
". . . . c.1@2@3@4@2+2+2+T+T+J.J.J.J.J.^+5@6@6@7@&@^+8@7@9@6@0@^+a@b@c@  w w w . . .             ",
". . . . s+4+'+d@e@f@f@g@h@i@)@)@j@j@)@k@l@o+o+m@n@C.o@p@f@q@r@s@t@9.    w w w . . .             ",
". . . . . .   u@u.v@v@v@w@w@w@w@w@w@t.t.t.x@v@v@t.t.t.t.t.t.v@v@y@1@. . w w w                   ",
". . . . . .   O.l.z@z@z@f.f.f.f.f.f.k.k.k.z@z@z@k.k.k.k.k.k.z@z@A@e.. . w w w                   ",
". . . . . .   a.b.^@^@^@e.e.e.e.e.e.b.b.b.^@^@^@b.b.b.b.b.b.^@^@.@d.. . w w w                   ",
". . .                   . . . . . .       w w w w w w       w w w . . . w w w             . . . ",
". . .                   . . . . . .       w w w w w w       w w w . . . w w w             . . . ",
". . .                   . . . . . .       w w w w w w       w w w . . . w w w             . . . ",
"                  . . . . . .                               . . . . . . . . . . . . . . . . . . ",
"                  . . . . . .                               . . . . . . . . . . . . . . . . . . ",
"                  . . . . . .                               . . . . . . . . . . . . . . . . . . "};
