/* XPM */
static char * fox2_xpm[] = {
"48 48 440 2",
"  	c #315F59",
". 	c #367F63",
"+ 	c #4E826B",
"@ 	c #636A67",
"# 	c #626665",
"$ 	c #5A6C69",
"% 	c #85918A",
"& 	c #636A66",
"* 	c #6B7372",
"= 	c #4B6B66",
"- 	c #4F806A",
"; 	c #2E3633",
"> 	c #030001",
", 	c #405652",
"' 	c #7C8481",
") 	c #040001",
"! 	c #4F5755",
"~ 	c #4D6B67",
"{ 	c #477F67",
"] 	c #414C46",
"^ 	c #674943",
"/ 	c #D31C1B",
"( 	c #E10303",
"_ 	c #9D3533",
": 	c #404644",
"< 	c #B93C3A",
"[ 	c #C22C2C",
"} 	c #554645",
"| 	c #495850",
"1 	c #578973",
"2 	c #428168",
"3 	c #4B7E67",
"4 	c #1E0708",
"5 	c #620707",
"6 	c #EB1E1D",
"7 	c #FE201F",
"8 	c #FE0F0E",
"9 	c #FE0000",
"0 	c #A90203",
"a 	c #1A0001",
"b 	c #C90303",
"c 	c #D80101",
"d 	c #460102",
"e 	c #333530",
"f 	c #5E8A76",
"g 	c #438269",
"h 	c #435D50",
"i 	c #5D594E",
"j 	c #CA0303",
"k 	c #D04B4A",
"l 	c #F6BEBB",
"m 	c #FDC8C5",
"n 	c #FD7878",
"o 	c #E10101",
"p 	c #CB0000",
"q 	c #EB0101",
"r 	c #EF0000",
"s 	c #CE0101",
"t 	c #C2221E",
"u 	c #536156",
"v 	c #576B61",
"w 	c #060404",
"x 	c #540203",
"y 	c #FD0000",
"z 	c #FD5F5E",
"A 	c #FEEDE8",
"B 	c #FFF9F4",
"C 	c #FD9796",
"D 	c #F10000",
"E 	c #2B0203",
"F 	c #454544",
"G 	c #040202",
"H 	c #540101",
"I 	c #FD4949",
"J 	c #FDBAB8",
"K 	c #FDC4C2",
"L 	c #FD7675",
"M 	c #2B0101",
"N 	c #FE0202",
"O 	c #FE1010",
"P 	c #FE0605",
"Q 	c #470101",
"R 	c #D70101",
"S 	c #DD0101",
"T 	c #F90000",
"U 	c #F40000",
"V 	c #DB0101",
"W 	c #230101",
"X 	c #89AB83",
"Y 	c #180101",
"Z 	c #550001",
"` 	c #7B0001",
" .	c #EE0000",
"..	c #680102",
"+.	c #500001",
"@.	c #0D0101",
"#.	c #414D4B",
"$.	c #454B48",
"%.	c #450404",
"&.	c #650101",
"*.	c #C70101",
"=.	c #F40101",
"-.	c #EE0101",
";.	c #D40101",
">.	c #B80101",
",.	c #550101",
"'.	c #461D1C",
").	c #4A5350",
"!.	c #57605D",
"~.	c #40615C",
"{.	c #0B0708",
"].	c #1C0001",
"^.	c #4F0001",
"/.	c #6C0001",
"(.	c #DF0000",
"_.	c #560001",
":.	c #480001",
"<.	c #120001",
"[.	c #2A302E",
"}.	c #56716C",
"|.	c #417D64",
"1.	c #224939",
"2.	c #33483C",
"3.	c #4B261F",
"4.	c #5C0001",
"5.	c #C10101",
"6.	c #DC0101",
"7.	c #F60000",
"8.	c #EF0101",
"9.	c #B20202",
"0.	c #4B3430",
"a.	c #314C3F",
"b.	c #2E4340",
"c.	c #4D6C67",
"d.	c #377F63",
"e.	c #357C61",
"f.	c #4D7D67",
"g.	c #42483C",
"h.	c #210001",
"i.	c #5B0101",
"j.	c #6A0001",
"k.	c #E40101",
"l.	c #CD0101",
"m.	c #520001",
"n.	c #130001",
"o.	c #4F5D55",
"p.	c #4F826C",
"q.	c #315D57",
"r.	c #34605A",
"s.	c #4D816B",
"t.	c #5A6858",
"u.	c #484E44",
"v.	c #4F2C29",
"w.	c #D30101",
"x.	c #ED0000",
"y.	c #BC0101",
"z.	c #462625",
"A.	c #38443E",
"B.	c #4D846D",
"C.	c #367E62",
"D.	c #346D56",
"E.	c #33614E",
"F.	c #347159",
"G.	c #3F8167",
"H.	c #558571",
"I.	c #5D8573",
"J.	c #555C57",
"K.	c #680001",
"L.	c #770001",
"M.	c #5A0101",
"N.	c #3F594B",
"O.	c #588672",
"P.	c #52856F",
"Q.	c #3B8065",
"R.	c #88AA82",
"S.	c #84A47E",
"T.	c #315B55",
"U.	c #357A5F",
"V.	c #367D61",
"W.	c #325546",
"X.	c #2F2F2E",
"Y.	c #325D4B",
"Z.	c #35795F",
"`.	c #367D62",
" +	c #438067",
".+	c #54605A",
"++	c #131212",
"@+	c #4B0405",
"#+	c #410808",
"$+	c #2C5644",
"%+	c #83A47E",
"&+	c #647B60",
"*+	c #30403D",
"=+	c #325B4A",
"-+	c #35785E",
";+	c #5E3F31",
">+	c #304139",
",+	c #325646",
"'+	c #35745B",
")+	c #3C8065",
"!+	c #578873",
"~+	c #8EAA89",
"{+	c #4C5A47",
"]+	c #150101",
"^+	c #4C5F55",
"/+	c #4D846C",
"(+	c #81A17B",
"_+	c #52634F",
":+	c #302F2E",
"<+	c #336450",
"[+	c #315E58",
"}+	c #304441",
"|+	c #595959",
"1+	c #D7855B",
"2+	c #CA733F",
"3+	c #2F3432",
"4+	c #304A46",
"5+	c #315752",
"6+	c #1B332F",
"7+	c #121010",
"8+	c #445F52",
"9+	c #994E22",
"0+	c #BE6936",
"a+	c #BF6D3D",
"b+	c #2F3431",
"c+	c #325E4C",
"d+	c #BEBEBE",
"e+	c #F2DDD7",
"f+	c #DB8A65",
"g+	c #BD6C3D",
"h+	c #2F3130",
"i+	c #304542",
"j+	c #86A780",
"k+	c #759270",
"l+	c #325747",
"m+	c #2F312F",
"n+	c #7D4A31",
"o+	c #604031",
"p+	c #33302E",
"q+	c #30473C",
"r+	c #304744",
"s+	c #2F3937",
"t+	c #D4D4D4",
"u+	c #E6E6E6",
"v+	c #D8865D",
"w+	c #D67941",
"x+	c #304440",
"y+	c #315A54",
"z+	c #30514D",
"A+	c #312F2E",
"B+	c #A25E39",
"C+	c #D17740",
"D+	c #315A55",
"E+	c #304642",
"F+	c #304C48",
"G+	c #9F5224",
"H+	c #9D5124",
"I+	c #A95B2D",
"J+	c #D57941",
"K+	c #304B47",
"L+	c #2F3836",
"M+	c #2F3E3B",
"N+	c #30504B",
"O+	c #315954",
"P+	c #944D26",
"Q+	c #914D26",
"R+	c #D1763F",
"S+	c #D47841",
"T+	c #D57841",
"U+	c #D37841",
"V+	c #304945",
"W+	c #30302F",
"X+	c #FFFFFF",
"Y+	c #2F302E",
"Z+	c #336954",
"`+	c #30514C",
" @	c #3C322E",
".@	c #9D5123",
"+@	c #D0753E",
"@@	c #D27740",
"#@	c #304340",
"$@	c #325D57",
"%@	c #315852",
"&@	c #304743",
"*@	c #373736",
"=@	c #315C56",
"-@	c #304D48",
";@	c #984F26",
">@	c #9F5225",
",@	c #36302E",
"'@	c #313835",
")@	c #344541",
"!@	c #305550",
"~@	c #30534E",
"{@	c #ADADAD",
"]@	c #325F4C",
"^@	c #315651",
"/@	c #303F3C",
"(@	c #9E5937",
"_@	c #373534",
":@	c #D77E4C",
"<@	c #D77F4E",
"[@	c #D9875E",
"}@	c #E1A893",
"|@	c #304E4A",
"1@	c #2F3833",
"2@	c #765F58",
"3@	c #C6ADA6",
"4@	c #FFFEFE",
"5@	c #FEFEFE",
"6@	c #818180",
"7@	c #2F3533",
"8@	c #2F3936",
"9@	c #304D49",
"0@	c #B6B3B2",
"a@	c #B8B7B7",
"b@	c #B8B8B8",
"c@	c #BCBCBC",
"d@	c #FAFAF9",
"e@	c #336651",
"f@	c #A0552C",
"g@	c #C5A69E",
"h@	c #C3A69D",
"i@	c #D17640",
"j@	c #BE7348",
"k@	c #8A8A8A",
"l@	c #B7B7B7",
"m@	c #325E4B",
"n@	c #34725A",
"o@	c #9D5022",
"p@	c #D37740",
"q@	c #35302E",
"r@	c #918E8E",
"s@	c #B5B5B5",
"t@	c #B4B4B4",
"u@	c #FDFDFD",
"v@	c #325A49",
"w@	c #9F5223",
"x@	c #CF753F",
"y@	c #30302E",
"z@	c #9E5224",
"A@	c #944D25",
"B@	c #9B542C",
"C@	c #683D2A",
"D@	c #303A34",
"E@	c #33624E",
"F@	c #35735A",
"G@	c #3B4339",
"H@	c #954E25",
"I@	c #9C5123",
"J@	c #CB713C",
"K@	c #31302E",
"L@	c #A65728",
"M@	c #CE7540",
"N@	c #C1876D",
"O@	c #EBEBEB",
"P@	c #D5D5D5",
"Q@	c #AAAAA9",
"R@	c #30443A",
"S@	c #325948",
"T@	c #35755C",
"U@	c #367C61",
"V@	c #32302E",
"W@	c #964E24",
"X@	c #9F5123",
"Y@	c #A25424",
"Z@	c #47342D",
"`@	c #9C5024",
" #	c #A05325",
".#	c #D57840",
"+#	c #383837",
"@#	c #304A45",
"##	c #43332D",
"$#	c #40322D",
"%#	c #BD6835",
"&#	c #C49786",
"*#	c #EEE7E5",
"=#	c #929292",
"-#	c #313130",
";#	c #2F3A37",
">#	c #2F3835",
",#	c #333632",
"'#	c #A55728",
")#	c #D47842",
"!#	c #B4B2B2",
"~#	c #BABABA",
"{#	c #525251",
"]#	c #3B3A38",
"^#	c #315953",
"/#	c #315751",
"(#	c #434D40",
"_#	c #AA6138",
":#	c #4A3B36",
"<#	c #A8A8A8",
"[#	c #484848",
"}#	c #3E3431",
"|#	c #693E2A",
"1#	c #7B9976",
"2#	c #475444",
"3#	c #7F472C",
"4#	c #B06A46",
"5#	c #30433F",
"6#	c #2F3D3B",
"7#	c #36312E",
"8#	c #644133",
"9#	c #688063",
"0#	c #31312F",
"a#	c #353533",
"b#	c #504F4D",
"c#	c #2F3C3A",
"d#	c #315853",
"e#	c #304F4A",
"f#	c #3D3D3C",
"g#	c #383C35",
"h#	c #335B4A",
"i#	c #345D4B",
"j#	c #343B36",
"k#	c #345546",
"l#	c #336953",
"m#	c #304643",
"n#	c #2F302F",
"o#	c #2F3D3A",
"p#	c #6F896A",
"q#	c #4D5C4A",
"r#	c #7E9D79",
"s#	c #314B3F",
"t#	c #315042",
"u#	c #347259",
"v#	c #315143",
"w#	c #789573",
"x#	c #51614D",
"y#	c #4F5E4C",
"z#	c #708B6C",
"A#	c #87A881",
"B#	c #35765D",
"C#	c #35775D",
"D#	c #315C57",
"E#	c #809F7A",
"F#	c #7F9F7A",
"G#	c #84A57F",
"                  . . .                         . . . . . . . . + @ # # # $   % & & # * = . . . ",
"                  . . .                         . . . . . . . . - ; > > > ,   ' > > ) ! ~ . . . ",
"                  . . .                         . . . . . . { ] ^ / ( ( ( _ : < ( ( ( [ } | 1 . ",
"      . . . . . . . . . . . . . . .                   . . 2 3 4 5 6 7 8 9 0 a b 9 9 9 c d e f g ",
"      . . . . . . . . . . . . . . .                   . . h i j k l m n 9 o p q 9 9 9 r s t u v ",
"      . . . . . . . . . . . . . . .                   . . w x y z A B C 9 9 9 9 9 9 9 9 9 D E F ",
". . . . . .                               . . . . . . . . G H y I J K L 9 9 9 9 9 9 9 9 9 D M F ",
". . . . . .                               . . . . . . . . G H y N 8 O P 9 9 9 9 9 9 9 9 9 D M F ",
". . . . . .                               . . . . . . . . G Q R S T 9 9 9 9 9 9 9 9 9 U V s W F ",
". . .       X X X                         X X X . . .     G Y Z `  .9 9 9 9 9 9 9 9 9 V ..+.@.F ",
". . .       X X X                         X X X . . .     #.$.%.&.*.c =.9 9 9 9 9 -.;.>.,.'.).!.",
". . .       X X X                         X X X . . .       ~.{.].^./.(.9 9 9 9 9 s _.:.<.[.}.  ",
". . . . . . X X X X X X             X X X X X X . . . . . . |.1.2.3.4.5.6.7.9 8.6.9.:.0.a.b.c.  ",
". . . . . . X X X X X X             X X X X X X . . . . . . d.e.f.g.h.i.j.k.9 l.j.m.n.o.p.q.r.  ",
". . . . . . X X X X X X             X X X X X X . . . . . . . . s.t.u.v.^.w.x.y.^.z.A.v B.      ",
". . . . . . . . . X X X . . .       X X X       . . . C.D.E.E.F.G.H.I.J.a K.L.M.a N.O.P.Q.. . . ",
". . . . . . . . . X X X . . .       X R.S.T.T.T.U.C.. V.W.X.X.Y.Z.`. +.+++@+_.#+++$+. . . . . . ",
". . . . . . . . . X X X . . .       X %+&+*+*+*+=+-+. V.W.X.;+>+,+'+)+!+~+{+]+^+O./+. . . . . . ",
". . . . . .       X X X X X X . . . X (+_+X.:+:+>+<+'+[+}+|+1+2+3+4+5+[+  6+7+8+. . . . . . . . ",
". . . . . .       X X X X X X . . . X (+_+X.9+0+a+b+c+[+}+d+e+f+g+h+i+q.      . . . . . . . . . ",
". . . . . .       X X X X X X . . . X j+k+l+m+n+o+p+q+r+s+t+u+v+w+X.x+q.      . . . . . . . . . ",
"            [+y+T.      . . .             z+h+X.p+:+p+X.A+p+B+C+w+X.x+q.      . . .       . . . ",
"            D+E+F+      . . .             z+h+G+H+G+I+J+w+w+w+w+w+X.x+q.      . . .       . . . ",
"          5+K+L+M+N+O+  . . .             z+h+P+Q+G+G+w+w+R+S+T+U+X.x+q.      . . .       . . . ",
"        [+V+W+X+d+Y+Z+.                 [+`+h+X. @G+.@+@w+X.X.@@S+:+#@$@      . . . . . . . . . ",
"      %@&@*@X+X+X+Y+Z+.               =@-@M+;@G+>@,@X.:+T+w+w+w+S+X.'@)@!@    . . . . . . . . . ",
"      ~@3+{@X+X+X+Y+]@F.^@D+          D+/@X.G+G+(@_@X.W+w+w+:@<@[@}@X.X.|@    . . . . . . . . . ",
". . . D.1@2@3@4@5@6@7@8@8@9@          D+/@X.0@a@b@a@c@d@X+X+X+4@X+X+X.X.e@. . X X X       . . . ",
". . . D.1@H+f@g@h@S+i@w+w+j@-@-@-@-@-@V+L+X.k@l@b@b@b@X+X+X+X+X+X+X+X.m@n@. . X X X       . . . ",
". . . D.1@G+G+o@p@w+w+w+w+w+X.X.X.X.X.X.X.q@q@r@s@b@b@t@u@5@u@X+5@X.v@V.. . . X X X       . . . ",
". . . D.1@G+G+w@w+w+w+w+w+x@y@G+G+G+G+z@A@B@C@X.X.X.X.X.X.X.X.X.D@E@'+C.X X X X X X             ",
". . . F@,+G@H@I@J@w+w+w+w+X.K@H+G+G+G+G+L@p@w+w+M@S+N@O@P@Q@X.R@S@T@. . X X X X X X             ",
". . . C.U@=+V@W@X@Y@Y@w+Z@X.`@G+G+G+G+ #w+w+.#T+w+w+w+X+X+X++#c+U@C.. . X X X X X X             ",
"      . . F.@#'@##$#A+A+:+X.G+G+G+G+ #%#w+w+w+w+w+&#*#X+X+=#-#K+  . . . X X X . . . . . .       ",
"      . . . y+}+;#;#;#>#,#X.G+G+G+G+'#w+w+w+w+w+)#!#~#{#]#X.X.K+  . . . X X X . . . . . .       ",
"      . . . [+^#/#/#/#N+(#q@G+G+H+G+w+@@@@w+w+_#:#<#<#[#}#|#X.K+  . . . X X X . . . . . .       ",
". . . . . . . . . X X 1#2#A+3#X.X.X.X.X.X.V@4#X.7@5#6#X.7#8#X.9#X       X X X . . .             ",
". . . . . . . . . X X 1#2#0#a#W+-#0#W+X.X.X.b#X.c#d#e#X.X.f#W+9#X       X X X . . .             ",
". . . . . . . . . X X 1#2#X.g#h#i#j#k#l#l#m#n#X.o#d#O+p#q#X.X.9#X       X X X . . .             ",
". . . . . .       X X r#W.s#t#u#n@v#`+    w#x#y#E+y+  [+K+M+y#z#X . . . X X X                   ",
". . . . . .       X X A#-+B#C#U@U@C#D#    j+E#F#D+[+    T.O+F#G#X . . . X X X                   ",
". . . . . .       X X X . . . . . .       X X X             X X X . . . X X X                   ",
". . .                   . . . . . .       X X X X X X       X X X . . . X X X             . . . ",
". . .                   . . . . . .       X X X X X X       X X X . . . X X X             . . . ",
". . .                   . . . . . .       X X X X X X       X X X . . . X X X             . . . ",
"                  . . . . . .                               . . . . . . . . . . . . . . . . . . ",
"                  . . . . . .                               . . . . . . . . . . . . . . . . . . ",
"                  . . . . . .                               . . . . . . . . . . . . . . . . . . "};
