/* XPM */
static char * reculer2_xpm[] = {
"48 48 27 1",
" 	c #315F59",
".	c #367F63",
"+	c #89AB83",
"@	c #453F60",
"#	c #2C253E",
"$	c #63778F",
"%	c #ADC3CC",
"&	c #9B3C1B",
"*	c #DC6831",
"=	c #5A2818",
"-	c #181818",
";	c #58372F",
">	c #685542",
",	c #B3956E",
"'	c #976147",
")	c #3D2225",
"!	c #63392D",
"~	c #D08860",
"{	c #F8D098",
"]	c #885038",
"^	c #F8F0E0",
"/	c #702818",
"(	c #C84830",
"_	c #204858",
":	c #389088",
"<	c #78D8E8",
"[	c #F09850",
"         ...            .........      ...   ...",
"         ...            .........      ...   ...",
"         ...            .........      ...   ...",
"   ...............         .........      +++...",
"   ...............         .........      +++...",
"   ...............         .........      +++...",
"......               @@@@@....         +++      ",
"......              #@$%%$@...         +++      ",
"......              ##@$%%$@..         +++      ",
"...   +++            #@%%%%$#    +++      ...   ",
"...   +++           #@&*&&*&=#   +++      ...   ",
"...   +++          #=&**&**&&=#  +++      ...   ",
"......++++++     ##=&$%%%%%$@#@##++++++   ...   ",
"......++++++     #@@@@@######@$$#++++++   ...   ",
"......++++++     --##;>,,,,';)@--++++++   ...   ",
".........+++...   ->!'~{{{~~'!)-....+++.........",
".........+++...   +{]~]]~~]]~-].....+++.........",
".........+++...   +~]]^-~{-^]--.....+++.........",
"......   ++++++...++]]^-{{-^--         .........",
"......   ++++++...++-]~~{{{~-//        .........",
"......   ++++++...+-//]~~~~-/(/__      .........",
"            ...   _/((/]]]-/((/:_]     ...   ...",
"            ...  _:</(([[[[((/::~]     ...   ...",
"            ... _<<:://([[[(/-_~~]     ...   ...",
"      ......    _<:_--_:<<:__.---      .........",
"      ......    _:{{-/_:::_[[/         .........",
"      ......    -]{{--/((/[((<<:       .........",
".........        ----::__((/<:__-......+++   ...",
".........          -___::(/<:___-......+++   ...",
".........          -(((__-/:____-......+++   ...",
"...................-(((/--/:___-....++++++      ",
"...................-/((-_--___-.....++++++      ",
"....................---__-+---......++++++      ",
"   ...      +++.......-__-.+++   ...+++......   ",
"   ...      +++........--..+++   ...+++......   ",
"   ...      +++............+++   ...+++......   ",
".........++++++......      ++++++   +++...      ",
".........++++++......----  ++++++   +++...      ",
".........++++++....--------++++++   +++...      ",
"......   +++......   +------- +++...+++         ",
"......   +++......   +++      +++...+++         ",
"......   +++......   +++      +++...+++         ",
"...         ......   ++++++   +++...+++      ...",
"...         ......   ++++++   +++...+++      ...",
"...         ......   ++++++   +++...+++      ...",
"         ......               ..................",
"         ......               ..................",
"         ......               .................."};
