/* XPM */
static char * reculer1_xpm[] = {
"48 48 27 1",
" 	c #315F59",
".	c #367F63",
"+	c #89AB83",
"@	c #453F60",
"#	c #63778F",
"$	c #ADC3CC",
"%	c #2C253E",
"&	c #9B3C1B",
"*	c #DC6831",
"=	c #5A2818",
"-	c #181818",
";	c #58372F",
">	c #685542",
",	c #B3956E",
"'	c #976147",
")	c #3D2225",
"!	c #63392D",
"~	c #D08860",
"{	c #F8D098",
"]	c #885038",
"^	c #F8F0E0",
"/	c #702818",
"(	c #204858",
"_	c #C84830",
":	c #389088",
"<	c #F09850",
"[	c #78D8E8",
"         ...            .........      ...   ...",
"         ...            .........      ...   ...",
"         ...            .........      ...   ...",
"   ...............         .........      +++...",
"   ...............         .........      +++...",
"   ...............         .........      +++...",
"......               ....@@@@@         +++      ",
"......               ..@@#$$#@%        +++      ",
"......               .%#$$$#@%%        +++      ",
"...   +++            %@$$$$#%    +++      ...   ",
"...   +++           %@&*&&*&=%   +++      ...   ",
"...   +++          %=&**&**&&=%  +++      ...   ",
"......++++++     %%=&#$$$$$#@%@%%++++++   ...   ",
"......++++++     %@@@@@%%%%%%@##%++++++   ...   ",
"......++++++     --%%;>,,,,';)@--++++++   ...   ",
".........+++...   -;!'~{{{~~'!;-....+++.........",
".........+++...   +]]~]]~~]]~]].....+++.........",
".........+++...   +]]]^-{~-^]]].....+++.........",
"......   ++++++...++]-^-{{-^-]         .........",
"......   ++++++...+//-~{{{~~--         .........",
"......   ++++++..((/_/-]~~]-//-        .........",
"            ... ](:/__/-]]-/__/(       ...   ...",
"            ... ]~::/__<<<<__/[:(      ...   ...",
"            ... -~~(-/_<<<_//::[[(     ...   ...",
"      ......     --- ((:[[:(--(:[(     .........",
"      ......        /<<(:::(/-{{:(     .........",
"      ......      :[[__</__/--{{]-     .........",
".........        -((:[/__((::----......+++   ...",
".........        -(((:[/_::(((-........+++   ...",
".........        -((((:/-((___-........+++   ...",
"..................-(((:/--/___-.....++++++      ",
"...................-(((--(-__/-.....++++++      ",
"....................---.-((---......++++++      ",
"   ...      +++.........-((-++   ...+++......   ",
"   ...      +++..........--+++   ...+++......   ",
"   ...      +++............+++   ...+++......   ",
".........++++++......      ++++++   +++...      ",
".........++++++......    ----++++   +++...      ",
".........++++++......  --------++   +++...      ",
"......   +++......   -------  +++...+++         ",
"......   +++......   +++      +++...+++         ",
"......   +++......   +++      +++...+++         ",
"...         ......   ++++++   +++...+++      ...",
"...         ......   ++++++   +++...+++      ...",
"...         ......   ++++++   +++...+++      ...",
"         ......               ..................",
"         ......               ..................",
"         ......               .................."};
