/* XPM */
static char * sortie_xpm[] = {
"48 48 6 1",
" 	c #315F59",
".	c #367F63",
"+	c #2E1C2C",
"@	c #2B3335",
"#	c #89AB83",
"$	c #254D48",
"         ...            .........      ...   ...",
"         ...            .........      ...   ...",
"         ...++++++++++++++++++++++++   ...   ...",
"   .........++++++++++++++++++++++++         ...",
"   .........++++++++++++++++++++++++         ...",
"   ......+++@@@......######......@@@+++      ...",
"......   +++@@@......######......@@@+++      ...",
"......   +++@@@......######......@@@+++      ...",
"......+++@@@...######......######...@@@+++   ...",
"...   +++@@@...######......######...@@@+++......",
"...   +++@@@...######......######...@@@+++......",
"...+++###...#########......#########...###+++...",
"...+++###...#########......#########...###+++...",
"...+++###...#########......#########...###+++...",
"+++###...#########...######...#########...###+++",
"+++###...#########...######...#########...###+++",
"+++###...#########...######...#########...###+++",
"+++.........###...############...###.........+++",
"+++.........###...############...###.........+++",
"+++.........###...############...###.........+++",
"+++$$$......$$$...############...$$$......$$$+++",
"+++$$$......$$$...############...$$$......$$$+++",
"+++$$$......$$$...############...$$$......$$$+++",
"+++$$$$$$$$$.........######.........$$$$$$$$$+++",
"+++$$$$$$$$$.........######.........$$$$$$$$$+++",
"+++$$$$$$$$$.........######.........$$$$$$$$$+++",
"   +++@@@$$$...###............###...$$$@@@+++...",
"...+++@@@$$$...###............###...$$$@@@+++...",
"...+++@@@$$$...###............###...$$$@@@+++...",
"+++$$$@@@$$$...###...$$$$$$...###...$$$@@@$$$+++",
"+++$$$@@@$$$...###...$$$$$$...###...$$$@@@$$$+++",
"+++$$$@@@$$$...###...$$$$$$...###...$$$@@@$$$+++",
"+++$$$@@@$$$$$$...$$$$$$$$$$$$...$$$$$$@@@$$$+++",
"+++$$$@@@$$$$$$...$$$$$$$$$$$$...$$$$$$@@@$$$+++",
"+++$$$@@@$$$$$$...$$$$$$$$$$$$...$$$$$$@@@$$$+++",
"   @@@@@@@@@$$$$$$$$$@@@@@@$$$$$$$$$@@@@@@$$$...",
"...@@@@@@@@@$$$$$$$$$@@@@@@$$$$$$$$$@@@@@@$$$   ",
"...@@@@@@@@@$$$$$$$$$@@@@@@$$$$$$$$$@@@@@@$$$   ",
"......@@@@@@@@@@@@@@@@@@@@@@@@@@@@@@@@@@@@      ",
"......@@@@@@@@@@@@@@@@@@@@@@@@@@@@@@@@@@@@      ",
"......@@@@@@@@@@@@@@@@@@@@@@@@@@@@@@@@@@@@      ",
"......      @@@$$$@@@@@@@@@$$$@@@@@@...         ",
"...         @@@$$$@@@@@@@@@$$$@@@@@@         ...",
"...         @@@$$$@@@@@@@@@$$$@@@@@@         ...",
"...         ...$$$@@@      $$$@@@...         ...",
"         ......$$$@@@      $$$@@@...............",
"         ......$$$@@@      $$$@@@...............",
"         ......            ....................."};
